!!!COM: Haydn, Franz Joseph
!!!OPR: Symphony in C Minor
!!!OTL: Affettuoso 
!!!OMV: 1
!!!SCT: H I:95
!!!SCA: Thematisch-bibliographisches Werkevererzeichnis (A. van Hoboken)
!!!YOR: Dover Edition
!!!EED: Frances Bennion
!!!ENC: Frances Bennion
!!!CDT: 1732/3/31/-1809/5/31/
!!!OCY: Österreich
!!!YEC: Copyright (c) 1994, 2000 Center for Computer Assisted Research in the Humanities
!!!YEM: Rights to all derivative editions reserved.
!!!YEM: Refer to licensing agreement for further details.
!!!YEN: United States of America
**kern	**kern	**kern	**kern	**kern	**kern	**kern	**kern	**kern	**kern	**kern	**kern	**kern	**kern	**kern
*k[b-e-a-]	*k[]	*k[]	*k[b-e-a-]	*k[b-e-a-]	*k[b-e-a-]	*k[b-e-a-]	*k[b-e-a-]	*k[b-e-a-]	*k[b-e-a-]	*k[b-e-a-]	*k[]	*k[]	*k[]	*k[]
*c:	*c:	*c:	*c:	*c:	*c:	*c:	*c:	*c:	*c:	*c:	*c:	*c:	*c:	*c:
*clefF	*clefF4	*clefF	*clefF	*clefF	*clefC3	*clefF4	*clefF	*clefF	*clefF4	*clefF4	*clefF	*clefF	*clefF	*clefF
*M2/2	*M2/2	*M2/2	*M2/2	*M2/2	*M2/2	*M2/2	*M2/2	*M2/2	*M2/2	*M2/2	*M2/2	*M2/2	*M2/2	*M2/2
=1	=1	=1	=1	=1	=1	=1	=1	=1	=1	=1	=1	=1	=1	=1
2ccc	2C	2ccc	2ccc	2cc	2cc	2c	2ccc	2cc	2c	2c	1r	1r	1r	1r
4gg	2r	4gg	4gg	4g	4g	4G	4gg	4g	4G	4G	.	.	.	.
4aa-	.	4aa-	4aa-	4a-	4a-	4A-	4aa-	4a-	4A-	4A-	.	.	.	.
=2	=2	=2	=2	=2	=2	=2	=2	=2	=2	=2	=2	=2	=2	=2
4ff#	1r	4ff#	4ff#	4f#	4f#	4F#	4ff#	4f#	4F#	4F#	1r	1r	1r	1r
4gg	.	4gg	4gg	4g	4g	4G	4gg	4g	4G	4G	.	.	.	.
2r	.	2r	2r	2r	2r	2r	2r	2r	2r	2r	.	.	.	.
=3	=3	=3	=3	=3	=3	=3	=3	=3	=3	=3	=3	=3	=3	=3
1r	1r	2r	2r	1r	1r	1r	1r	1r	1r	1r	1r	1r	1r	1r
.	.	8.r	8.r	.	.	.	.	.	.	.	.	.	.	.
.	.	16G	16G	.	.	.	.	.	.	.	.	.	.	.
.	.	8.c	8.c	.	.	.	.	.	.	.	.	.	.	.
.	.	16e-	16e-	.	.	.	.	.	.	.	.	.	.	.
=4	=4	=4	=4	=4	=4	=4	=4	=4	=4	=4	=4	=4	=4	=4
1r	1r	4e-	4e-	2B	2F	2F	1r	1r	1r	1r	1r	1r	1r	1r
.	.	4d	4d	.	.	.	.	.	.	.	.	.	.	.
.	.	8c	8c	4c	4E-	4E-	.	.	.	.	.	.	.	.
.	.	16r	16r	.	.	.	.	.	.	.	.	.	.	.
.	.	16c	16c	.	.	.	.	.	.	.	.	.	.	.
.	.	8.e-	8.e-	4r	4r	4r	.	.	.	.	.	.	.	.
.	.	16g	16g	.	.	.	.	.	.	.	.	.	.	.
=5	=5	=5	=5	=5	=5	=5	=5	=5	=5	=5	=5	=5	=5	=5
1r	1r	4g	4g	2B	2.G	2D	1r	1r	1r	1r	1r	1r	1r	1r
.	.	4f	4f	.	.	.	.	.	.	.	.	.	.	.
.	.	8e-	8e-	4c	.	4C	.	.	.	.	.	.	.	.
.	.	16r	16r	.	.	.	.	.	.	.	.	.	.	.
.	.	16e-	16e-	.	.	.	.	.	.	.	.	.	.	.
.	.	8.g	8.g	4r	4r	4r	.	.	.	.	.	.	.	.
.	.	16cc	16cc	.	.	.	.	.	.	.	.	.	.	.
=6	=6	=6	=6	=6	=6	=6	=6	=6	=6	=6	=6	=6	=6	=6
1r	1r	2cc	2cc	2.f	2.d	[1G	1r	1r	2.f	2.d	1r	1r	1r	1r
.	.	8b	8b	.	.	.	.	.	.	.	.	.	.	.
.	.	8cc	8cc	.	.	.	.	.	.	.	.	.	.	.
.	.	8dd	8dd	4e-	4c	.	.	.	4e-	4c	.	.	.	.
.	.	8ee-	8ee-	.	.	.	.	.	.	.	.	.	.	.
=7	=7	=7	=7	=7	=7	=7	=7	=7	=7	=7	=7	=7	=7	=7
1r	1r	4ff	4ff	4d	4B	4G]	1r	1r	4d	4B	1r	1r	1r	1r
.	.	4r	4r	4r	2.r	2.r	.	.	2.r	2.r	.	.	.	.
.	.	8dd	8dd	8b	.	.	.	.	.	.	.	.	.	.
.	.	8ee-	8ee-	8cc	.	.	.	.	.	.	.	.	.	.
.	.	8ff	8ff	8dd	.	.	.	.	.	.	.	.	.	.
.	.	8gg	8gg	8ee-	.	.	.	.	.	.	.	.	.	.
=8	=8	=8	=8	=8	=8	=8	=8	=8	=8	=8	=8	=8	=8	=8
1r	1r	4aa-	4aa-	4ff	4r	1r	1r	1r	1r	1r	1r	1r	1r	1r
.	.	2aa-	2aa-	2ff	4B	.	.	.	.	.	.	.	.	.
.	.	.	.	.	4c	.	.	.	.	.	.	.	.	.
.	.	4gg	4gg	4ee-	4g	.	.	.	.	.	.	.	.	.
=9	=9	=9	=9	=9	=9	=9	=9	=9	=9	=9	=9	=9	=9	=9
1r	1r	4ff	4ff	4dd	4a-	1r	1r	1r	1r	1r	1r	1r	1r	1r
.	.	2ee-	2ee-	2cc	4g	.	.	.	.	.	.	.	.	.
.	.	.	.	.	4f#	.	.	.	.	.	.	.	.	.
.	.	4dd	4dd	4b	4g	.	.	.	.	.	.	.	.	.
=10	=10	=10	=10	=10	=10	=10	=10	=10	=10	=10	=10	=10	=10	=10
2ccc	2C	2ccc	2ccc	2cc	2cc	2c	2ccc	2cc	2c	2c	1r	1r	2cc	2c
4gg	2r	4gg	4gg	4g	4g	4G	4gg	4g	4G	4G	.	.	2r	2r
4aa-	.	4aa-	4aa-	4a-	4a-	4A-	4aa-	4a-	4A-	4A-	.	.	.	.
=11	=11	=11	=11	=11	=11	=11	=11	=11	=11	=11	=11	=11	=11	=11
4ff#	1r	4ff#	4ff#	4f#	4f#	4F#	4ff#	4f#	4F#	4F#	1r	1r	1r	1r
4gg	.	4gg	4gg	4g	4g	4G	4gg	4g	4G	4G	.	.	.	.
2r	.	2r	2r	2r	2r	2r	2r	2r	2r	2r	.	.	.	.
=12	=12	=12	=12	=12	=12	=12	=12	=12	=12	=12	=12	=12	=12	=12
1r	1r	4e	4e	4e	4e	4E	1r	1r	1r	1r	1r	1r	1r	1r
.	.	4f	4f	4f	4f	4F	.	.	.	.	.	.	.	.
.	.	2r	2r	2r	2r	2r	.	.	.	.	.	.	.	.
=13	=13	=13	=13	=13	=13	=13	=13	=13	=13	=13	=13	=13	=13	=13
1r	1r	4d	4d	4d	4d	4D	1r	1r	1r	1r	1r	1r	1r	1r
.	.	4e-	4e-	4e-	4e-	4E-	.	.	.	.	.	.	.	.
.	.	2r	2r	2r	2r	2r	.	.	.	.	.	.	.	.
=14	=14	=14	=14	=14	=14	=14	=14	=14	=14	=14	=14	=14	=14	=14
1r	1r	4A	4A	4A	4A	4AA	1r	1r	1r	1r	1r	1r	1r	1r
.	.	4B-	4B-	4B-	4B-	4BB-	.	.	.	.	.	.	.	.
.	.	4c-	4c-	4c-	4c-	4C-	.	.	.	.	.	.	.	.
.	.	4A	4A	4A	4A	4AA	.	.	.	.	.	.	.	.
=15	=15	=15	=15	=15	=15	=15	=15	=15	=15	=15	=15	=15	=15	=15
1r	1r	4B-	4B-	4B-	4B-	4BB-	1r	1r	1r	1r	1r	1r	1r	1r
.	.	2b-	2b-	4d	4B-	2.r	.	.	.	.	.	.	.	.
.	.	.	.	4e-	4c	.	.	.	.	.	.	.	.	.
.	.	4a-	4a-	4f	4d	.	.	.	.	.	.	.	.	.
=16	=16	=16	=16	=16	=16	=16	=16	=16	=16	=16	=16	=16	=16	=16
2gg	1r	4g 4G	4g 4G	4G 4e-	2e-	2E-	2gg	2gg	2e-	2e-	2ee	2cc	2g	2g
.	.	12gg	12gg	4ee-	.	.	.	.	.	.	.	.	.	.
.	.	12aa-	12aa-	.	.	.	.	.	.	.	.	.	.	.
.	.	12gg	12gg	.	.	.	.	.	.	.	.	.	.	.
4dd	.	4ff	4ff	4dd	4B	4BB	4ff	4dd	4B	4B	4dd	4dd	2r	2r
4ee-	.	4ee-	4ee-	4cc	4c	4C	4ee-	4ee-	4c	4c	4cc	4cc	.	.
=17	=17	=17	=17	=17	=17	=17	=17	=17	=17	=17	=17	=17	=17	=17
4ccc	1r	4ccc	4ccc	4f 4ee-	4A	4AA	4ccc	4cc	4A	4A	4dd	4dd	1r	1r
4dd	.	4dd	4dd	4f 4dd	4B-	4BB-	4dd	4dd	4B-	4B-	4gg	4g	.	.
4r	.	8.r	8.r	8.r	2r	4r	4r	2r	4r	4r	2r	2r	.	.
.	.	16dd-	16dd-	16dd-	.	.	.	.	.	.	.	.	.	.
4ddd-	.	16ee-	16ee-	16ee-	.	4B-	[4dd-	.	4B-	4B-	.	.	.	.
.	.	16dd-	16dd-	16dd-	.	.	.	.	.	.	.	.	.	.
.	.	16cc	16cc	16cc	.	.	.	.	.	.	.	.	.	.
.	.	16dd-	16dd-	16dd-	.	.	.	.	.	.	.	.	.	.
=18	=18	=18	=18	=18	=18	=18	=18	=18	=18	=18	=18	=18	=18	=18
4bb-	1r	8.bb-	8.bb-	8.bb-	2e-	4G	4dd-]	2ee-	4G	4G	1r	1r	1r	1r
.	.	16cc	16cc	16cc	.	.	.	.	.	.	.	.	.	.
4ccc	.	16dd-	16dd-	16dd-	.	4A-	2cc	.	4A-	4A-	.	.	.	.
.	.	16cc	16cc	16cc	.	.	.	.	.	.	.	.	.	.
.	.	16b-	16b-	16b-	.	.	.	.	.	.	.	.	.	.
.	.	16cc	16cc	16cc	.	.	.	.	.	.	.	.	.	.
4aa-	.	8.aa-	8.aa-	8.aa-	2d-	4F	.	2dd-	4F	4F	.	.	.	.
.	.	16b-	16b-	16b-	.	.	.	.	.	.	.	.	.	.
4bb-	.	16cc	16cc	16cc	.	4G	[4b-	.	4G	4G	.	.	.	.
.	.	16b-	16b-	16b-	.	.	.	.	.	.	.	.	.	.
.	.	16a	16a	16a	.	.	.	.	.	.	.	.	.	.
.	.	16b-	16b-	16b-	.	.	.	.	.	.	.	.	.	.
=19	=19	=19	=19	=19	=19	=19	=19	=19	=19	=19	=19	=19	=19	=19
4gg	1r	4gg	4gg	4gg	2c	4E	4b-]	2cc	4E	4E	1r	1r	4cc	4c
4aa-	.	4a-	4a-	4a-	.	4F	4a-	.	4F	4F	.	.	4cc	4c
4r	.	8.r	8.r	8.r	4r	4r	4r	4r	4r	4r	.	.	2r	2r
.	.	16a-	16a-	16a-	.	.	.	.	.	.	.	.	.	.
4aa-	.	16b-	16b-	16b-	4c	4F	4aa-	4aa-	4F	4F	.	.	.	.
.	.	16a-	16a-	16a-	.	.	.	.	.	.	.	.	.	.
.	.	16g	16g	16g	.	.	.	.	.	.	.	.	.	.
.	.	16a-	16a-	16a-	.	.	.	.	.	.	.	.	.	.
=20	=20	=20	=20	=20	=20	=20	=20	=20	=20	=20	=20	=20	=20	=20
4ff	1r	8.ff	8.ff	8.ff	2B-	4D	4aa-	4aa-	4D	4D	1r	1r	1r	1r
.	.	16g	16g	16g	.	.	.	.	.	.	.	.	.	.
4gg	.	16a-	16a-	16a-	.	4E-	4gg	4gg	4E-	4E-	.	.	.	.
.	.	16g	16g	16g	.	.	.	.	.	.	.	.	.	.
.	.	16f	16f	16f	.	.	.	.	.	.	.	.	.	.
.	.	16g	16g	16g	.	.	.	.	.	.	.	.	.	.
8.ccc	.	8.cc	8.cc	8.cc	2c	4AA-	4ff	4ff	4AA-	4AA-	.	.	.	.
16ee-	.	16e-	16e-	16e-	.	.	.	.	.	.	.	.	.	.
16ff	.	16f	16f	16f	.	4AA	4ee-	4ee-	4AA	4AA	.	.	.	.
16ee-	.	16e-	16e-	16e-	.	.	.	.	.	.	.	.	.	.
16dd	.	16d	16d	16d	.	.	.	.	.	.	.	.	.	.
16ee-	.	16e-	16e-	16e-	.	.	.	.	.	.	.	.	.	.
=21	=21	=21	=21	=21	=21	=21	=21	=21	=21	=21	=21	=21	=21	=21
[1bb-	1r	4d	4d	2b-	2B-	12BB-	4bb-	2b-	2B-	2B-	[1g	[1G	1r	1r
.	.	.	.	.	.	12BB-	.	.	.	.	.	.	.	.
.	.	.	.	.	.	12BB-	.	.	.	.	.	.	.	.
.	.	2.r	2.r	.	.	12BB-	2.r	.	.	.	.	.	.	.
.	.	.	.	.	.	12BB-	.	.	.	.	.	.	.	.
.	.	.	.	.	.	12BB-	.	.	.	.	.	.	.	.
.	.	.	.	4e	2r	12BB-	.	4e	4E	4E	.	.	.	.
.	.	.	.	.	.	12BB-	.	.	.	.	.	.	.	.
.	.	.	.	.	.	12BB-	.	.	.	.	.	.	.	.
.	.	.	.	4f	.	12BB-	.	4f	4F	4F	.	.	.	.
.	.	.	.	.	.	12BB-	.	.	.	.	.	.	.	.
.	.	.	.	.	.	12BB-	.	.	.	.	.	.	.	.
=22	=22	=22	=22	=22	=22	=22	=22	=22	=22	=22	=22	=22	=22	=22
1bb-_	1r	2aa-	2aa-	4c#	2a-	12BB-	2aa-	4c#	4C#	4C#	1g_	1G_	1r	1r
.	.	.	.	.	.	12BB-	.	.	.	.	.	.	.	.
.	.	.	.	.	.	12BB-	.	.	.	.	.	.	.	.
.	.	.	.	4d	.	12BB-	.	4d	4D	4D	.	.	.	.
.	.	.	.	.	.	12BB-	.	.	.	.	.	.	.	.
.	.	.	.	.	.	12BB-	.	.	.	.	.	.	.	.
.	.	4ee	4ee	2r	4e	12BB-	4ee	2r	2r	2r	.	.	.	.
.	.	.	.	.	.	12BB-	.	.	.	.	.	.	.	.
.	.	.	.	.	.	12BB-	.	.	.	.	.	.	.	.
.	.	4ff	4ff	.	4f	12BB-	4ff	.	.	.	.	.	.	.
.	.	.	.	.	.	12BB-	.	.	.	.	.	.	.	.
.	.	.	.	.	.	12BB-	.	.	.	.	.	.	.	.
=23	=23	=23	=23	=23	=23	=23	=23	=23	=23	=23	=23	=23	=23	=23
1bb-_	1r	4cc#	4cc#	2b-	4c#	12BB-	4cc#	2b-	2B-	2B-	1g_	1G_	1r	1r
.	.	.	.	.	.	12BB-	.	.	.	.	.	.	.	.
.	.	.	.	.	.	12BB-	.	.	.	.	.	.	.	.
.	.	4dd	4dd	.	4d	12BB-	4dd	.	.	.	.	.	.	.
.	.	.	.	.	.	12BB-	.	.	.	.	.	.	.	.
.	.	.	.	.	.	12BB-	.	.	.	.	.	.	.	.
.	.	2r	2r	4f#	2r	12BB-	2r	4f#	4F#	4F#	.	.	.	.
.	.	.	.	.	.	12BB-	.	.	.	.	.	.	.	.
.	.	.	.	.	.	12BB-	.	.	.	.	.	.	.	.
.	.	.	.	4g	.	12BB-	.	4g	4G	4G	.	.	.	.
.	.	.	.	.	.	12BB-	.	.	.	.	.	.	.	.
.	.	.	.	.	.	12BB-	.	.	.	.	.	.	.	.
=24	=24	=24	=24	=24	=24	=24	=24	=24	=24	=24	=24	=24	=24	=24
2bb-]	1r	2bb-	2bb-	4d	2b-	12BB-	2bb-	4d	4D	4D	1g_	1G_	1r	1r
.	.	.	.	.	.	12BB-	.	.	.	.	.	.	.	.
.	.	.	.	.	.	12BB-	.	.	.	.	.	.	.	.
.	.	.	.	4e-	.	12BB-	.	4e-	4E-	4E-	.	.	.	.
.	.	.	.	.	.	12BB-	.	.	.	.	.	.	.	.
.	.	.	.	.	.	12BB-	.	.	.	.	.	.	.	.
4ff#	.	4ff#	4ff#	2r	4f#	12BB-	4ff#	2r	2r	2r	.	.	.	.
.	.	.	.	.	.	12BB-	.	.	.	.	.	.	.	.
.	.	.	.	.	.	12BB-	.	.	.	.	.	.	.	.
4gg	.	4gg	4gg	.	4g	12BB-	4gg	.	.	.	.	.	.	.
.	.	.	.	.	.	12BB-	.	.	.	.	.	.	.	.
.	.	.	.	.	.	12BB-	.	.	.	.	.	.	.	.
=25	=25	=25	=25	=25	=25	=25	=25	=25	=25	=25	=25	=25	=25	=25
4dd	1r	4dd	4dd	2cc	4d	12BB-	4dd	2cc	2c	2c	1g_	1G_	1r	1r
.	.	.	.	.	.	12BB-	.	.	.	.	.	.	.	.
.	.	.	.	.	.	12BB-	.	.	.	.	.	.	.	.
4ee-	.	4ee-	4ee-	.	4e-	12BB-	4ee-	.	.	.	.	.	.	.
.	.	.	.	.	.	12BB-	.	.	.	.	.	.	.	.
.	.	.	.	.	.	12BB-	.	.	.	.	.	.	.	.
4ee	.	4ee	4ee	4g	4e	12BB-	4ee	4g	4G	4G	.	.	.	.
.	.	.	.	.	.	12BB-	.	.	.	.	.	.	.	.
.	.	.	.	.	.	12BB-	.	.	.	.	.	.	.	.
4ff	.	4ff	4ff	4a-	4f	12BB-	4ff	4a-	4A-	4A-	.	.	.	.
.	.	.	.	.	.	12BB-	.	.	.	.	.	.	.	.
.	.	.	.	.	.	12BB-	.	.	.	.	.	.	.	.
=26	=26	=26	=26	=26	=26	=26	=26	=26	=26	=26	=26	=26	=26	=26
4gg	1r	4gg	4gg	4e	4g	12BB-	4gg	4e	4E	4E	1g_	1G_	1r	1r
.	.	.	.	.	.	12BB-	.	.	.	.	.	.	.	.
.	.	.	.	.	.	12BB-	.	.	.	.	.	.	.	.
4aa-	.	4aa-	4aa-	4f	4a-	12BB-	4aa-	4f	4F	4F	.	.	.	.
.	.	.	.	.	.	12BB-	.	.	.	.	.	.	.	.
.	.	.	.	.	.	12BB-	.	.	.	.	.	.	.	.
4bb-	.	4bb-	4bb-	4g	4b-	12BB-	4bb-	4g	4G	4G	.	.	.	.
.	.	.	.	.	.	12BB-	.	.	.	.	.	.	.	.
.	.	.	.	.	.	12BB-	.	.	.	.	.	.	.	.
4ccc	.	4ccc	4ccc	4a-	4cc	12BB-	4ccc	4a-	4A-	4A-	.	.	.	.
.	.	.	.	.	.	12BB-	.	.	.	.	.	.	.	.
.	.	.	.	.	.	12BB-	.	.	.	.	.	.	.	.
=27	=27	=27	=27	=27	=27	=27	=27	=27	=27	=27	=27	=27	=27	=27
12ccc	1r	12ccc	12ccc	4B- 4a-	12cc	4BB-	4dd	4a-	4D	4D	4g]	4G]	1r	1r
12bb-	.	12bb-	12bb-	.	12b-	.	.	.	.	.	.	.	.	.
12aa-	.	12aa-	12aa-	.	12a-	.	.	.	.	.	.	.	.	.
12gg	.	12gg	12gg	4r	12g	4r	4r	4r	4r	4r	4r	4r	.	.
12ff	.	12ff	12ff	.	12f	.	.	.	.	.	.	.	.	.
12ee-	.	12ee-	12ee-	.	12e-	.	.	.	.	.	.	.	.	.
12dd	.	12dd	12dd	4B- 4a-	12d	4BB-	4ff	4ff	4f	4d	4g	4G	.	.
12ccc	.	12ccc	12ccc	.	12cc	.	.	.	.	.	.	.	.	.
12bb-	.	12bb-	12bb-	.	12b-	.	.	.	.	.	.	.	.	.
16aa-	.	16aa-	16aa-	4r	16a-	4r	4r	4r	4r	4r	4r	4r	.	.
16gg	.	16gg	16gg	.	16g	.	.	.	.	.	.	.	.	.
16ff	.	16ff	16ff	.	16f	.	.	.	.	.	.	.	.	.
16ee-	.	16ee-	16ee-	.	16e-	.	.	.	.	.	.	.	.	.
=28	=28	=28	=28	=28	=28	=28	=28	=28	=28	=28	=28	=28	=28	=28
4dd	1r	4dd	4dd	4B- 4a-	4d	4BB-	4aa-	4ff	4f	4d	4g	4G	1r	1r
2.r	.	2r	2r	2.r	2.r	2.r	2.r	2.r	2.r	2.r	2.r	2.r	.	.
.	.	8.r	8.r	.	.	.	.	.	.	.	.	.	.	.
.	.	16gg	16gg	.	.	.	.	.	.	.	.	.	.	.
=29	=29	=29	=29	=29	=29	=29	=29	=29	=29	=29	=29	=29	=29	=29
1r	1r	4gg	4gg	2..r	4G 4e-	4E-	1r	1r	4E-	4E-	2cc	2e	1r	1r
.	.	8ee-	8ee-	.	2.r	2.r	.	.	2.r	2.r	.	.	.	.
.	.	16r	16r	.	.	.	.	.	.	.	.	.	.	.
.	.	16ee-	16ee-	.	.	.	.	.	.	.	.	.	.	.
.	.	4ee-	4ee-	.	.	.	.	.	.	.	2r	2r	.	.
.	.	8b-	8b-	.	.	.	.	.	.	.	.	.	.	.
.	.	16r	16r	16r	.	.	.	.	.	.	.	.	.	.
.	.	16b-	16b-	16g	.	.	.	.	.	.	.	.	.	.
=30	=30	=30	=30	=30	=30	=30	=30	=30	=30	=30	=30	=30	=30	=30
1r	1r	8b-	8b-	8g	1r	1r	1r	1r	1r	1r	4cc	4e	1r	1r
.	.	8a-	8a-	8f	.	.	.	.	.	.	.	.	.	.
.	.	8a-	8a-	8f	.	.	.	.	.	.	4dd	4g	.	.
.	.	8g	8g	8e-	.	.	.	.	.	.	.	.	.	.
.	.	4g	4g	4e-	.	.	.	.	.	.	4ee	4cc	.	.
.	.	8.r	8.r	4r	.	.	.	.	.	.	4r	4r	.	.
.	.	16aa-	16aa-	.	.	.	.	.	.	.	.	.	.	.
=31	=31	=31	=31	=31	=31	=31	=31	=31	=31	=31	=31	=31	=31	=31
1r	1r	4aa-	4aa-	4d	4B- 4f	4BB-	1r	1r	4BB-	4BB-	2dd	2g	1r	1r
.	.	8ff	8ff	2r	2.r	2.r	.	.	2.r	2.r	.	.	.	.
.	.	16r	16r	.	.	.	.	.	.	.	.	.	.	.
.	.	16ff	16ff	.	.	.	.	.	.	.	.	.	.	.
.	.	4ff	4ff	.	.	.	.	.	.	.	2r	2r	.	.
.	.	8dd	8dd	8.r	.	.	.	.	.	.	.	.	.	.
.	.	16r	16r	.	.	.	.	.	.	.	.	.	.	.
.	.	16a-	16a-	16f	.	.	.	.	.	.	.	.	.	.
=32	=32	=32	=32	=32	=32	=32	=32	=32	=32	=32	=32	=32	=32	=32
1r	1r	8a-	8a-	8f	2..r	1r	1r	1r	1r	1r	4dd	4g	1r	1r
.	.	8g	8g	8e-	.	.	.	.	.	.	.	.	.	.
.	.	8g	8g	8e-	.	.	.	.	.	.	4ee	4cc	.	.
.	.	8f	8f	8d	.	.	.	.	.	.	.	.	.	.
.	.	4f	4f	4d	.	.	.	.	.	.	4ff	4dd	.	.
.	.	8.r	8.r	4r	.	.	.	.	.	.	4r	4r	.	.
.	.	.	.	.	16r	.	.	.	.	.	.	.	.	.
.	.	16bb-	16bb-	.	16b-	.	.	.	.	.	.	.	.	.
=33	=33	=33	=33	=33	=33	=33	=33	=33	=33	=33	=33	=33	=33	=33
1r	1r	4.bb-	4.bb-	8G	4.b-	4G	1r	1r	4G	1r	1r	1r	1r	1r
.	.	.	.	8e-	.	.	.	.	.	.	.	.	.	.
.	.	.	.	8B-	.	2.r	.	.	2.r	.	.	.	.	.
.	.	16ccc	16ccc	8e-	16cc	.	.	.	.	.	.	.	.	.
.	.	16ddd	16ddd	.	16dd	.	.	.	.	.	.	.	.	.
.	.	8eee-	8eee-	8G	8ee-	.	.	.	.	.	.	.	.	.
.	.	6..r	6..r	8e-	6..r	.	.	.	.	.	.	.	.	.
.	.	.	.	8B-	.	.	.	.	.	.	.	.	.	.
.	.	.	.	8e-	.	.	.	.	.	.	.	.	.	.
.	.	16gg	16gg	.	16g	.	.	.	.	.	.	.	.	.
=34	=34	=34	=34	=34	=34	=34	=34	=34	=34	=34	=34	=34	=34	=34
1r	1r	4.ff	4.ff	8A-	4.f	4A-	1r	1r	4A-	1r	1r	1r	1r	1r
.	.	.	.	8f	.	.	.	.	.	.	.	.	.	.
.	.	.	.	8c	.	2.r	.	.	2.r	.	.	.	.	.
.	.	16aa-	16aa-	8f	16a-	.	.	.	.	.	.	.	.	.
.	.	16bb-	16bb-	.	16b-	.	.	.	.	.	.	.	.	.
.	.	8ccc	8ccc	8A-	8cc	.	.	.	.	.	.	.	.	.
.	.	6..r	6..r	8f	6..r	.	.	.	.	.	.	.	.	.
.	.	.	.	8c	.	.	.	.	.	.	.	.	.	.
.	.	.	.	8f	.	.	.	.	.	.	.	.	.	.
.	.	16cc	16cc	.	16c	.	.	.	.	.	.	.	.	.
=35	=35	=35	=35	=35	=35	=35	=35	=35	=35	=35	=35	=35	=35	=35
1r	1r	12b-	12b-	4g	12B-	4B-	1r	1r	4B-	1r	1r	1r	1r	1r
.	.	12bb-	12bb-	.	12b-	.	.	.	.	.	.	.	.	.
.	.	12aa-	12aa-	.	12a-	.	.	.	.	.	.	.	.	.
.	.	12gg	12gg	2r	12g	2r	.	.	2r	.	.	.	.	.
.	.	12ff	12ff	.	12f	.	.	.	.	.	.	.	.	.
.	.	12ee-	12ee-	.	12e-	.	.	.	.	.	.	.	.	.
.	.	12dd	12dd	.	12d	.	.	.	.	.	.	.	.	.
.	.	12cc	12cc	.	12c	.	.	.	.	.	.	.	.	.
.	.	12b-	12b-	.	12B-	.	.	.	.	.	.	.	.	.
.	.	12a-	12a-	4A- 4d	12A-	4BB-	.	.	4BB-	.	.	.	.	.
.	.	12g	12g	.	12G	.	.	.	.	.	.	.	.	.
.	.	12f	12f	.	12F	.	.	.	.	.	.	.	.	.
=36	=36	=36	=36	=36	=36	=36	=36	=36	=36	=36	=36	=36	=36	=36
1r	1r	8e-	8e-	4e- 4G	4G	4E-	1r	1r	4E-	1r	1r	1r	1r	1r
.	.	8G	8G	.	.	.	.	.	.	.	.	.	.	.
.	.	8B-	8B-	2r	2.r	2.r	.	.	2r	.	.	.	.	.
.	.	8e-	8e-	.	.	.	.	.	.	.	.	.	.	.
.	.	8g	8g	.	.	.	.	.	.	.	.	.	.	.
.	.	8b-	8b-	.	.	.	.	.	.	.	.	.	.	.
.	.	8ee-	8ee-	8.r	.	.	.	.	8.r	.	.	.	.	.
.	.	8gg	8gg	.	.	.	.	.	.	.	.	.	.	.
.	.	.	.	16gg	.	.	.	.	16g	.	.	.	.	.
=37	=37	=37	=37	=37	=37	=37	=37	=37	=37	=37	=37	=37	=37	=37
1r	1r	4bb-	4bb-	4gg	2..r	4E-	1r	1r	4g	2..r	2cc	2e	1r	1r
.	.	2.r	2.r	8ee-	.	2.r	.	.	8e-	.	.	.	.	.
.	.	.	.	16r	.	.	.	.	16r	.	.	.	.	.
.	.	.	.	16ee-	.	.	.	.	16e-	.	.	.	.	.
.	.	.	.	4ee-	.	.	.	.	4e-	.	2r	2r	.	.
.	.	.	.	8b-	.	.	.	.	8B-	.	.	.	.	.
.	.	.	.	16r	16r	.	.	.	16r	16r	.	.	.	.
.	.	.	.	16b-	16g	.	.	.	16B-	16G	.	.	.	.
=38	=38	=38	=38	=38	=38	=38	=38	=38	=38	=38	=38	=38	=38	=38
8r	1r	8r	8r	8b-	8g	1r	1r	1r	8B-	8G	4cc	4e	1r	1r
8b-	.	8b-	8b-	8a-	8f	.	.	.	8A-	8F	.	.	.	.
8cc	.	8cc	8cc	8a-	8f	.	.	.	8A-	8F	4dd	4g	.	.
8dd	.	8dd	8dd	8g	8e-	.	.	.	8G	8E-	.	.	.	.
8ee-	.	8ee-	8ee-	4g	4e-	.	.	.	4G	4E-	4ee	4cc	.	.
8ff	.	8ff	8ff	.	.	.	.	.	.	.	.	.	.	.
8gg	.	8gg	8gg	8.r	4r	.	.	.	8.r	4r	4r	4r	.	.
8r	.	8r	8r	.	.	.	.	.	.	.	.	.	.	.
.	.	.	.	16aa-	.	.	.	.	16a-	.	.	.	.	.
=39	=39	=39	=39	=39	=39	=39	=39	=39	=39	=39	=39	=39	=39	=39
1r	1r	1r	1r	4aa-	4d	4BB-	1r	1r	4a-	2..r	2dd	2g	1r	1r
.	.	.	.	8ff	2r	2.r	.	.	8f	.	.	.	.	.
.	.	.	.	16r	.	.	.	.	16r	.	.	.	.	.
.	.	.	.	16ff	.	.	.	.	16f	.	.	.	.	.
.	.	.	.	4ff	.	.	.	.	4f	.	2r	2r	.	.
.	.	.	.	8dd	8.r	.	.	.	8d	.	.	.	.	.
.	.	.	.	16r	.	.	.	.	16r	16r	.	.	.	.
.	.	.	.	16a-	16f	.	.	.	16A-	16F	.	.	.	.
=40	=40	=40	=40	=40	=40	=40	=40	=40	=40	=40	=40	=40	=40	=40
8r	1r	8r	8r	8a-	8f	4BB-	1r	1r	8A-	8F	4dd	4g	1r	1r
8b-	.	8b-	8b-	8g	8e-	.	.	.	8G	8E-	.	.	.	.
8dd	.	8dd	8dd	8g	8e-	2.r	.	.	8G	8E-	4ee	4cc	.	.
8ee-	.	8ee-	8ee-	8f	8d	.	.	.	8F	8D	.	.	.	.
8ff	.	8ff	8ff	4f	4d	.	.	.	4F	4D	4ff	4dd	.	.
8gg	.	8gg	8gg	.	.	.	.	.	.	.	.	.	.	.
8aa-	.	8aa-	8aa-	4r	4r	.	.	.	4r	4r	4r	4r	.	.
8aa	.	8aa	8aa	.	.	.	.	.	.	.	.	.	.	.
=41	=41	=41	=41	=41	=41	=41	=41	=41	=41	=41	=41	=41	=41	=41
4.bb-	1r	4.bb-	4.bb-	8G	4e- 4G	4G	1r	1r	4.B-	1r	1r	1r	1r	1r
.	.	.	.	8e-	.	.	.	.	.	.	.	.	.	.
.	.	.	.	8B-	2.r	2.r	.	.	.	.	.	.	.	.
16ccc	.	16ccc	16ccc	8e-	.	.	.	.	16c	.	.	.	.	.
16ddd	.	16ddd	16ddd	.	.	.	.	.	16d	.	.	.	.	.
8eee-	.	8eee-	8eee-	8G	.	.	.	.	16e-	.	.	.	.	.
.	.	.	.	.	.	.	.	.	4.r	.	.	.	.	.
6..r	.	6..r	6..r	8e-	.	.	.	.	.	.	.	.	.	.
.	.	.	.	8B-	.	.	.	.	.	.	.	.	.	.
.	.	.	.	8e-	.	.	.	.	.	.	.	.	.	.
16gg	.	16gg	16gg	.	.	.	.	.	16G	.	.	.	.	.
=42	=42	=42	=42	=42	=42	=42	=42	=42	=42	=42	=42	=42	=42	=42
4.ff	1r	4.ff	4.ff	8A-	4c	4A-	1r	1r	4.F	1r	1r	1r	1r	1r
.	.	.	.	8f	.	.	.	.	.	.	.	.	.	.
.	.	.	.	8c	2.r	2.r	.	.	.	.	.	.	.	.
16aa-	.	16aa-	16aa-	8f	.	.	.	.	16A-	.	.	.	.	.
16bb-	.	16bb-	16bb-	.	.	.	.	.	16B-	.	.	.	.	.
8ccc	.	8ccc	8ccc	8A-	.	.	.	.	8c	.	.	.	.	.
6..r	.	6..r	6..r	8f	.	.	.	.	6..r	.	.	.	.	.
.	.	.	.	8c	.	.	.	.	.	.	.	.	.	.
.	.	.	.	8f	.	.	.	.	.	.	.	.	.	.
16cc	.	16cc	16cc	.	.	.	.	.	16C	.	.	.	.	.
=43	=43	=43	=43	=43	=43	=43	=43	=43	=43	=43	=43	=43	=43	=43
12b-	1r	12b-	12b-	4g	4e-	4B-	2.r	2.r	12BB-	1r	2.ee	2.cc	1r	1r
12bb-	.	12bb-	12bb-	.	.	.	.	.	12B-	.	.	.	.	.
12aa-	.	12aa-	12aa-	.	.	.	.	.	12A-	.	.	.	.	.
12gg	.	12gg	12gg	2r	2r	2r	.	.	12G	.	.	.	.	.
12ff	.	12ff	12ff	.	.	.	.	.	12F	.	.	.	.	.
12ee-	.	12ee-	12ee-	.	.	.	.	.	12E-	.	.	.	.	.
12dd	.	12dd	12dd	.	.	.	.	.	12D	.	.	.	.	.
12cc	.	12cc	12cc	.	.	.	.	.	12C	.	.	.	.	.
12b-	.	12b-	12b-	.	.	.	.	.	12BB-	.	.	.	.	.
12a-	.	12a-	12a-	4A- 4d	4f 4B-	4BB-	4ff	4dd	12A-	.	4ff	4dd	.	.
12g	.	12g	12g	.	.	.	.	.	12G	.	.	.	.	.
12f	.	12f	12f	.	.	.	.	.	12F	.	.	.	.	.
=44	=44	=44	=44	=44	=44	=44	=44	=44	=44	=44	=44	=44	=44	=44
4e-	1r	4e- 4G	4e- 4G	12G 12e-	4g 4B-	4E-	4gg	4ee-	12E-	12E-	4ee	4cc	1r	1r
.	.	.	.	12b-	.	.	.	.	12B-	12B-	.	.	.	.
.	.	.	.	12a-	.	.	.	.	12A-	12A-	.	.	.	.
2r	.	2r	2r	12g	2r	2r	2r	2r	12G	12G	2r	2r	.	.
.	.	.	.	12f	.	.	.	.	12F	12F	.	.	.	.
.	.	.	.	12e-	.	.	.	.	12E-	12E-	.	.	.	.
.	.	.	.	12d	.	.	.	.	12D	12D	.	.	.	.
.	.	.	.	12c	.	.	.	.	12C	12C	.	.	.	.
.	.	.	.	12B-	.	.	.	.	12BB-	12BB-	.	.	.	.
4ddd	.	12bb-	12bb-	12A-	4f 4B-	4BB-	4ff	4dd	4A-	4A-	4dd	4g	.	.
.	.	12ff	12ff	12G	.	.	.	.	.	.	.	.	.	.
.	.	12dd	12dd	12A-	.	.	.	.	.	.	.	.	.	.
=45	=45	=45	=45	=45	=45	=45	=45	=45	=45	=45	=45	=45	=45	=45
4eee-	1r	4ee-	4ee-	12G	4g 4B-	4E-	4gg	4ee-	12G	12G	4ee	4cc	1r	1r
.	.	.	.	12b-	.	.	.	.	12B-	12B-	.	.	.	.
.	.	.	.	12a-	.	.	.	.	12A-	12A-	.	.	.	.
2r	.	2r	2r	12g	2r	2r	2r	2r	12G	12G	2r	2r	.	.
.	.	.	.	12f	.	.	.	.	12F	12F	.	.	.	.
.	.	.	.	12e-	.	.	.	.	12E-	12E-	.	.	.	.
.	.	.	.	12d	.	.	.	.	12D	12D	.	.	.	.
.	.	.	.	12c	.	.	.	.	12C	12C	.	.	.	.
.	.	.	.	12B-	.	.	.	.	12BB-	12BB-	.	.	.	.
4ddd	.	12bb-	12bb-	12A-	4B- 4f	4BB-	4ff	4dd	4A-	4A-	4dd	4g	.	.
.	.	12ff	12ff	12G	.	.	.	.	.	.	.	.	.	.
.	.	12dd	12dd	12A-	.	.	.	.	.	.	.	.	.	.
=46	=46	=46	=46	=46	=46	=46	=46	=46	=46	=46	=46	=46	=46	=46
2eee-	1r	12ee-	12ee-	12G	12b-	12E-	2gg	2ee-	4G	4G	2cc	2c	1r	1r
.	.	12ee-	12ee-	12g	12b-	12E-	.	.	.	.	.	.	.	.
.	.	12ee-	12ee-	12g	12b-	12E-	.	.	.	.	.	.	.	.
.	.	12ee-	12ee-	12g	12b-	12E-	.	.	4E-	4E-	.	.	.	.
.	.	12ee-	12ee-	12g	12b-	12E-	.	.	.	.	.	.	.	.
.	.	12ee-	12ee-	12g	12b-	12E-	.	.	.	.	.	.	.	.
2gg	.	12ff-	12ff-	12g	12b-	12D-	2bb-	2ff-	4d-	4d-	2ee	2e	.	.
.	.	12ff-	12ff-	12g	12b-	12D-	.	.	.	.	.	.	.	.
.	.	12ff-	12ff-	12g	12b-	12D-	.	.	.	.	.	.	.	.
.	.	12ff-	12ff-	12g	12b-	12D-	.	.	4d-	4d-	.	.	.	.
.	.	12ff-	12ff-	12g	12b-	12D-	.	.	.	.	.	.	.	.
.	.	12ff-	12ff-	12g	12b-	12D-	.	.	.	.	.	.	.	.
=47	=47	=47	=47	=47	=47	=47	=47	=47	=47	=47	=47	=47	=47	=47
2aa-	1r	12ee-	12ee-	12a-	12e-	12C	2aa-	2ee-	2c	2c	1cc	1c	1r	1r
.	.	12ee-	12ee-	12a-	12e-	12C	.	.	.	.	.	.	.	.
.	.	12ee-	12ee-	12a-	12e-	12C	.	.	.	.	.	.	.	.
.	.	12ee-	12ee-	12a-	12e-	12C	.	.	.	.	.	.	.	.
.	.	12ee-	12ee-	12a-	12e-	12C	.	.	.	.	.	.	.	.
.	.	12ee-	12ee-	12a-	12e-	12C	.	.	.	.	.	.	.	.
2aa	.	12gg-	12gg-	12a	12e-	12C-	2ee-	2gg-	2c-	2c-	.	.	.	.
.	.	12gg-	12gg-	12a	12e-	12C-	.	.	.	.	.	.	.	.
.	.	12gg-	12gg-	12a	12e-	12C-	.	.	.	.	.	.	.	.
.	.	12ee-	12ee-	12a	12e-	12C-	.	.	.	.	.	.	.	.
.	.	12ee-	12ee-	12a	12e-	12C-	.	.	.	.	.	.	.	.
.	.	12ee-	12ee-	12a	12e-	12C-	.	.	.	.	.	.	.	.
=48	=48	=48	=48	=48	=48	=48	=48	=48	=48	=48	=48	=48	=48	=48
2bb-	1r	12dd	12dd	12b-	4f	4BB-	4dd	2bb-	1B-	1B-	1g	1G	1r	1r
.	.	12a	12a	12a	.	.	.	.	.	.	.	.	.	.
.	.	12b-	12b-	12b-	.	.	.	.	.	.	.	.	.	.
.	.	12ee-	12ee-	12ee-	4B-	4C	4ee-	.	.	.	.	.	.	.
.	.	12a	12a	12a	.	.	.	.	.	.	.	.	.	.
.	.	12b-	12b-	12b-	.	.	.	.	.	.	.	.	.	.
2r	.	12ff	12ff	12ff	4B-	4D	4ff	4aa-	.	.	.	.	.	.
.	.	12a	12a	12a	.	.	.	.	.	.	.	.	.	.
.	.	12b-	12b-	12b-	.	.	.	.	.	.	.	.	.	.
.	.	12gg	12gg	12gg	4B-	4E-	4gg	4gg	.	.	.	.	.	.
.	.	12a	12a	12a	.	.	.	.	.	.	.	.	.	.
.	.	12b-	12b-	12b-	.	.	.	.	.	.	.	.	.	.
=49	=49	=49	=49	=49	=49	=49	=49	=49	=49	=49	=49	=49	=49	=49
1b-	1r	12aa-	12aa-	12aa-	4D	4BB- 4F	1aa-	1ff	1d	1d	1dd	1g	1r	1r
.	.	12a	12a	12a	.	.	.	.	.	.	.	.	.	.
.	.	12b-	12b-	12b-	.	.	.	.	.	.	.	.	.	.
.	.	12aa-	12aa-	12aa-	2r	2r	.	.	.	.	.	.	.	.
.	.	12a	12a	12a	.	.	.	.	.	.	.	.	.	.
.	.	12b-	12b-	12b-	.	.	.	.	.	.	.	.	.	.
.	.	12aa-	12aa-	12aa-	.	.	.	.	.	.	.	.	.	.
.	.	12ff	12ff	12ff	.	.	.	.	.	.	.	.	.	.
.	.	12dd	12dd	12dd	.	.	.	.	.	.	.	.	.	.
.	.	12b-	12b-	12b-	4d	4D	.	.	.	.	.	.	.	.
.	.	12cc	12cc	12cc	.	.	.	.	.	.	.	.	.	.
.	.	12a-	12a-	12a-	.	.	.	.	.	.	.	.	.	.
=50	=50	=50	=50	=50	=50	=50	=50	=50	=50	=50	=50	=50	=50	=50
4gg	1r	12g	12g	12g	12e-	4E-	4gg	4gg	4e-	4e-	4ee	4cc	1r	1r
.	.	12g	12g	12g	12e-	.	.	.	.	.	.	.	.	.
.	.	12g	12g	12g	12e-	.	.	.	.	.	.	.	.	.
2r	.	12ee-	12ee-	12b-	12g	2r	2r	2r	2r	2r	2r	2r	.	.
.	.	12ee-	12ee-	12b-	12g	.	.	.	.	.	.	.	.	.
.	.	12ee-	12ee-	12b-	12g	.	.	.	.	.	.	.	.	.
.	.	12dd	12dd	12a-	12f	.	.	.	.	.	.	.	.	.
.	.	12dd	12dd	12a-	12f	.	.	.	.	.	.	.	.	.
.	.	12dd	12dd	12a-	12f	.	.	.	.	.	.	.	.	.
4bb-	.	12aa-	12aa-	12B- 12f	12b-	12D	4aa-	4ff	4D	4D	4dd	4g	.	.
.	.	12aa-	12aa-	12B- 12f	12b-	12D	.	.	.	.	.	.	.	.
.	.	12aa-	12aa-	12B- 12f	12b-	12D	.	.	.	.	.	.	.	.
=51	=51	=51	=51	=51	=51	=51	=51	=51	=51	=51	=51	=51	=51	=51
4gg	1r	12gg	12gg	12g 12B-	12b-	4E-	4gg	4gg	4E-	4E-	4ee	4cc	1r	1r
.	.	12gg	12gg	12B- 12g	12b-	.	.	.	.	.	.	.	.	.
.	.	12gg	12gg	12B- 12g	12b-	.	.	.	.	.	.	.	.	.
2r	.	12ee-	12ee-	12b-	12g	2r	2r	2r	2r	2r	2r	2r	.	.
.	.	12ee-	12ee-	12b-	12g	.	.	.	.	.	.	.	.	.
.	.	12ee-	12ee-	12b-	12g	.	.	.	.	.	.	.	.	.
.	.	12dd	12dd	12a-	12f	.	.	.	.	.	.	.	.	.
.	.	12dd	12dd	12a-	12f	.	.	.	.	.	.	.	.	.
.	.	12dd	12dd	12a-	12f	.	.	.	.	.	.	.	.	.
4bb-	.	12aa-	12aa-	12f	12b-	12D	4aa-	4ff	4D	4D	4dd	4g	.	.
.	.	12aa-	12aa-	12f	12b-	12D	.	.	.	.	.	.	.	.
.	.	12aa-	12aa-	12f	12b-	12D	.	.	.	.	.	.	.	.
=52	=52	=52	=52	=52	=52	=52	=52	=52	=52	=52	=52	=52	=52	=52
4gg	1r	12gg	12gg	12e-	12e-	4E-	4gg	[1ee-	4E-	4E-	4ee	4cc	1r	1r
.	.	12gg	12gg	12e-	12e-	.	.	.	.	.	.	.	.	.
.	.	12gg	12gg	12e-	12e-	.	.	.	.	.	.	.	.	.
4aa-	.	12aa-	12aa-	12e-	12e-	4C	4aa-	.	4C	4C	2.r	2.r	.	.
.	.	12aa-	12aa-	12e-	12e-	.	.	.	.	.	.	.	.	.
.	.	12aa-	12aa-	12e-	12e-	.	.	.	.	.	.	.	.	.
4bb-	.	12bb-	12bb-	12e-	12e-	4GG	4bb-	.	4GG	4GG	.	.	.	.
.	.	12bb-	12bb-	12e-	12e-	.	.	.	.	.	.	.	.	.
.	.	12bb-	12bb-	12e-	12e-	.	.	.	.	.	.	.	.	.
4ccc	.	12ccc	12ccc	12e-	12e-	4AA-	4ccc	.	4AA-	4AA-	.	.	.	.
.	.	12ccc	12ccc	12e-	12e-	.	.	.	.	.	.	.	.	.
.	.	12ccc	12ccc	12e-	12e-	.	.	.	.	.	.	.	.	.
=53	=53	=53	=53	=53	=53	=53	=53	=53	=53	=53	=53	=53	=53	=53
12bb-	1r	12bb-	12bb-	4G 4e-	4e-	4BB-	4bb-	4ee-]	4BB-	4BB-	2.ee	2.cc	1r	1r
12ccc	.	12ccc	12ccc	.	.	.	.	.	.	.	.	.	.	.
12bb-	.	12bb-	12bb-	.	.	.	.	.	.	.	.	.	.	.
12aa-	.	12aa-	12aa-	2r	2r	2r	2r	2r	2r	2r	.	.	.	.
12gg	.	12gg	12gg	.	.	.	.	.	.	.	.	.	.	.
12ff	.	12ff	12ff	.	.	.	.	.	.	.	.	.	.	.
12ee-	.	12ee-	12ee-	.	.	.	.	.	.	.	.	.	.	.
12dd	.	12dd	12dd	.	.	.	.	.	.	.	.	.	.	.
12cc	.	12cc	12cc	.	.	.	.	.	.	.	.	.	.	.
12b-	.	12b-	12b-	12a-	12f	4BB-	12aa-	12ff	4BB-	4BB-	4dd	4g	.	.
12cc	.	12cc	12cc	12g	12g	.	12gg	12ee-	.	.	.	.	.	.
12dd	.	12dd	12dd	12f	12a-	.	12ff	12dd	.	.	.	.	.	.
=54	=54	=54	=54	=54	=54	=54	=54	=54	=54	=54	=54	=54	=54	=54
4ee-	1r	12ee-	12ee-	2ee-	2ee-	2e-	[1ee-	2ee-	2e-	2e-	[1cc	[1c	1r	1r
.	.	12eee-	12eee-	.	.	.	.	.	.	.	.	.	.	.
.	.	12eee-	12eee-	.	.	.	.	.	.	.	.	.	.	.
2eee-	.	12eee-	12eee-	.	.	.	.	.	.	.	.	.	.	.
.	.	12eee-	12eee-	.	.	.	.	.	.	.	.	.	.	.
.	.	12eee-	12eee-	.	.	.	.	.	.	.	.	.	.	.
.	.	12eee-	12eee-	4b	4b	4B	.	4b	4B	4B	.	.	.	.
.	.	12eee-	12eee-	.	.	.	.	.	.	.	.	.	.	.
.	.	12eee-	12eee-	.	.	.	.	.	.	.	.	.	.	.
4eee-	.	12eee-	12eee-	4cc	4cc	4c	.	4cc	4c	4c	.	.	.	.
.	.	12eee-	12eee-	.	.	.	.	.	.	.	.	.	.	.
.	.	12eee-	12eee-	.	.	.	.	.	.	.	.	.	.	.
=55	=55	=55	=55	=55	=55	=55	=55	=55	=55	=55	=55	=55	=55	=55
1eee-	1r	12eee-	12eee-	4.dd-	4.dd-	4.d-	1ee-]	1dd-	4.d-	4.d-	1cc_	1c_	1r	1r
.	.	12eee-	12eee-	.	.	.	.	.	.	.	.	.	.	.
.	.	12eee-	12eee-	.	.	.	.	.	.	.	.	.	.	.
.	.	12eee-	12eee-	.	.	.	.	.	.	.	.	.	.	.
.	.	12eee-	12eee-	8cc	8cc	8c	.	.	8c	8c	.	.	.	.
.	.	12eee-	12eee-	.	.	.	.	.	.	.	.	.	.	.
.	.	12eee-	12eee-	12b-	12b-	12B-	.	.	12B-	12B-	.	.	.	.
.	.	12eee-	12eee-	12a-	12a-	12A-	.	.	12A-	12A-	.	.	.	.
.	.	12eee-	12eee-	12g	12g	12G	.	.	12G	12G	.	.	.	.
.	.	12eee-	12eee-	12f	12f	12F	.	.	12F	12F	.	.	.	.
.	.	12eee-	12eee-	12e-	12e-	12E-	.	.	12E-	12E-	.	.	.	.
.	.	12eee-	12eee-	12d-	12d-	12D-	.	.	12D-	12D-	.	.	.	.
=56	=56	=56	=56	=56	=56	=56	=56	=56	=56	=56	=56	=56	=56	=56
2eee-	1r	12eee-	12eee-	2c	12c	12C	2ee-	2cc	2C	2C	1cc]	1c]	1r	1r
.	.	12eee-	12eee-	.	12c	12C	.	.	.	.	.	.	.	.
.	.	12eee-	12eee-	.	12c	12C	.	.	.	.	.	.	.	.
.	.	12eee-	12eee-	.	12c	12C	.	.	.	.	.	.	.	.
.	.	12eee-	12eee-	.	12c	12C	.	.	.	.	.	.	.	.
.	.	12eee-	12eee-	.	12c	12C	.	.	.	.	.	.	.	.
2aa	.	12aa	12aa	2g-	12e-	12c	2gg-	[2ee-	2c	2c	.	.	.	.
.	.	12aa	12aa	.	12e-	12c	.	.	.	.	.	.	.	.
.	.	12aa	12aa	.	12e-	12c	.	.	.	.	.	.	.	.
.	.	12aa	12aa	.	12e-	12c	.	.	.	.	.	.	.	.
.	.	12aa	12aa	.	12e-	12c	.	.	.	.	.	.	.	.
.	.	12aa	12aa	.	12e-	12c	.	.	.	.	.	.	.	.
=57	=57	=57	=57	=57	=57	=57	=57	=57	=57	=57	=57	=57	=57	=57
12bb-	1r	12bb-	12bb-	12g	12e-	12B-	4bb-	4ee-]	2B-	2B-	4ee	4cc	1r	1r
12gg	.	12gg	12gg	12e-	12g	12B-	.	.	.	.	.	.	.	.
12aa-	.	12aa-	12aa-	12f	12f	12B-	.	.	.	.	.	.	.	.
12bb-	.	12bb-	12bb-	12g	12e-	12B-	2r	2r	.	.	2r	2r	.	.
12gg	.	12gg	12gg	12e-	12g	12B-	.	.	.	.	.	.	.	.
12aa-	.	12aa-	12aa-	12f	12f	12B-	.	.	.	.	.	.	.	.
12bb-	.	12bb-	12bb-	12g	4e-	12BB-	.	.	2BB-	2BB-	.	.	.	.
12ccc	.	12ccc	12ccc	12a-	.	12BB-	.	.	.	.	.	.	.	.
12bb-	.	12bb-	12bb-	12g	.	12BB-	.	.	.	.	.	.	.	.
12aa-	.	12aa-	12aa-	12f	4B-	12BB-	4dd	4a-	.	.	4dd	4g	.	.
12gg	.	12gg	12gg	12e-	.	12BB-	.	.	.	.	.	.	.	.
12ff	.	12ff	12ff	12d	.	12BB-	.	.	.	.	.	.	.	.
=58	=58	=58	=58	=58	=58	=58	=58	=58	=58	=58	=58	=58	=58	=58
4ee-	1r	4ee-	4ee-	4e-	4G	4E-	4ee-	4g	4E-	4E-	4cc	4e	1r	1r
2.r	.	2.r	2.r	2.r	2.r	2.r	12ff	4b-	2.r	2.r	4dd	4g	.	.
.	.	.	.	.	.	.	12gg	.	.	.	.	.	.	.
.	.	.	.	.	.	.	12ff	.	.	.	.	.	.	.
.	.	.	.	.	.	.	4gg	4ee-	.	.	4ee	4cc	.	.
.	.	.	.	.	.	.	12ff	4b-	.	.	4dd	4g	.	.
.	.	.	.	.	.	.	12gg	.	.	.	.	.	.	.
.	.	.	.	.	.	.	12ff	.	.	.	.	.	.	.
=59	=59	=59	=59	=59	=59	=59	=59	=59	=59	=59	=59	=59	=59	=59
4r	1r	4r	4r	4r	4r	4r	4ee-	4g	4r	4r	4cc	4e	1r	1r
4ddd	.	4ff 4d 4b-	4ff 4d 4b-	4ff 4b- 4d	4B- 4a-	4BB-	12ff	4b-	4BB-	4BB-	4dd	4g	.	.
.	.	.	.	.	.	.	12gg	.	.	.	.	.	.	.
.	.	.	.	.	.	.	12ff	.	.	.	.	.	.	.
4eee-	.	4e- 4gg 4b-	4e- 4gg 4b-	4gg 4e- 4b-	4g 4B-	4E-	4gg	4ee-	4E-	4E-	4ee	4cc	.	.
4ddd	.	4d 4ff 4b-	4d 4ff 4b-	4ff 4b- 4d	4a- 4B-	4BB-	12ff	4b-	4BB-	4BB-	4dd	4g	.	.
.	.	.	.	.	.	.	12gg	.	.	.	.	.	.	.
.	.	.	.	.	.	.	12ff	.	.	.	.	.	.	.
=60	=60	=60	=60	=60	=60	=60	=60	=60	=60	=60	=60	=60	=60	=60
4eee-	1r	4e- 4ee- 4G	4e- 4ee- 4G	4e- 4G 4ee-	4B- 4g	4E-	4ee-	4g	4E-	4E-	4cc	4e	1r	1r
4r	.	4r	4r	4r	4r	4r	4r	4r	4r	4r	4r	4r	.	.
4ee-	.	4gg 4b- 4e-	4gg 4b- 4e-	4e- 4gg 4b-	4e- 4G	4EE-	4bb-	4gg	4EE-	4EE-	4cc	4e	.	.
4r	.	4r	4r	4r	4r	4r	4r	4r	4r	4r	4r	4r	.	.
=61	=61	=61	=61	=61	=61	=61	=61	=61	=61	=61	=61	=61	=61	=61
4ee-	1r	4G 4e-	4G 4e-	4G 4e-	4e- 4G	4EE-	4gg	4ee-	4EE-	4EE-	4cc	4e	1r	1r
2.r	.	2.r	2.r	2.r	2.r	2.r	2.r	2.r	2.r	2.r	2.r	2.r	.	.
=62	=62	=62	=62	=62	=62	=62	=62	=62	=62	=62	=62	=62	=62	=62
1r	1r	2gg	2gg	1r	1r	1r	1r	1r	1r	1r	1r	1r	1r	1r
.	.	4dd	4dd	.	.	.	.	.	.	.	.	.	.	.
.	.	4ee-	4ee-	.	.	.	.	.	.	.	.	.	.	.
=63	=63	=63	=63	=63	=63	=63	=63	=63	=63	=63	=63	=63	=63	=63
1r	1r	4a	4a	4g-	4e-	1r	1r	1r	1r	1r	1r	1r	1r	1r
.	.	4b-	4b-	4f	4d	.	.	.	.	.	.	.	.	.
.	.	2r	2r	2r	2r	.	.	.	.	.	.	.	.	.
=64	=64	=64	=64	=64	=64	=64	=64	=64	=64	=64	=64	=64	=64	=64
1r	1r	2aa-	2aa-	1r	1r	1r	1r	1r	1r	1r	1r	1r	1r	1r
.	.	4ee	4ee	.	.	.	.	.	.	.	.	.	.	.
.	.	4ff	4ff	.	.	.	.	.	.	.	.	.	.	.
=65	=65	=65	=65	=65	=65	=65	=65	=65	=65	=65	=65	=65	=65	=65
1r	1r	4b	4b	4a-	4f	2c	1r	1r	1r	1r	1r	1r	1r	1r
.	.	4cc	4cc	4g	4e	.	.	.	.	.	.	.	.	.
.	.	2r	2r	4e	4B-	4G	.	.	.	.	.	.	.	.
.	.	.	.	4f	4c	4A-	.	.	.	.	.	.	.	.
=66	=66	=66	=66	=66	=66	=66	=66	=66	=66	=66	=66	=66	=66	=66
1ccc	2C	2ccc	2ccc	4G	4B-	4E	2ccc	2cc	1r	1r	1r	1r	2cc	2c
.	.	.	.	4A-	4A-	4F	.	.	.	.	.	.	.	.
.	2r	4gg	4gg	2r	2r	2r	4gg	4ee-	.	.	.	.	2r	2r
.	.	4aa-	4aa-	.	.	.	4aa-	4ff	.	.	.	.	.	.
=67	=67	=67	=67	=67	=67	=67	=67	=67	=67	=67	=67	=67	=67	=67
4gg	1r	4ee	4ee	4b-	4g	2d-	4ee	4b-	2d-	2d-	1r	1r	1r	1r
4aa-	.	4ff	4ff	4a-	4f	.	4ff	4a-	.	.	.	.	.	.
4ff	.	4cc	4cc	2f	4e-	4A	4cc	2r	4A	4A	.	.	.	.
4ff	.	4dd-	4dd-	.	4d-	4B-	4dd-	.	4B-	4B-	.	.	.	.
=68	=68	=68	=68	=68	=68	=68	=68	=68	=68	=68	=68	=68	=68	=68
4ee-	1r	4a	4a	4e-	4c	4F	4a	1r	4F	4F	1r	1r	1r	1r
2dd-	.	2b-	2b-	2d-	2B-	2G-	2b-	.	2G-	2G-	.	.	.	.
4dd	.	4a-	4a-	4d	4A-	4F	[4bb-	.	4F	4F	.	.	.	.
=69	=69	=69	=69	=69	=69	=69	=69	=69	=69	=69	=69	=69	=69	=69
4ee-	1r	4g	4g	[1e-	1B-	2E-	4bb-]	2g	2E-	2E-	[1cc	[1c	1r	1r
2b-	.	2ee-	2ee-	.	.	.	4gg	.	.	.	.	.	.	.
.	.	.	.	.	.	2G	4ee-	[2ee-	2G	2G	.	.	.	.
4dd-	.	4dd-	4dd-	.	.	.	4dd-	.	.	.	.	.	.	.
=70	=70	=70	=70	=70	=70	=70	=70	=70	=70	=70	=70	=70	=70	=70
4b	1r	4b	4b	2e-]	2A-	2A-	4b	2ee-]	2A-	2A-	2cc]	2c]	1r	1r
2cc	.	2cc	2cc	.	.	.	2cc	.	.	.	.	.	.	.
.	.	.	.	2e	2G	2G	.	2ee	2G	2G	2r	2r	.	.
4bb-	.	4b-	4b-	.	.	.	[4ccc	.	.	.	.	.	.	.
=71	=71	=71	=71	=71	=71	=71	=71	=71	=71	=71	=71	=71	=71	=71
2aa-	1r	4a-	4a-	4f	2c	2F	4ccc]	2ff	2F	2F	1r	1r	1r	1r
.	.	2ff	2ff	2a-	.	.	2aa-	.	.	.	.	.	.	.
2ff	.	.	.	.	2d-	2D-	.	2b	2D-	2D-	.	.	.	.
.	.	4b	4b	4f	.	.	4ff	.	.	.	.	.	.	.
=72	=72	=72	=72	=72	=72	=72	=72	=72	=72	=72	=72	=72	=72	=72
2ee	2C	2cc	2cc	2.e	1c	12C	2ccc	4cc	[1C	[1C	1r	1r	2cc	2c
.	.	.	.	.	.	12C	.	.	.	.	.	.	.	.
.	.	.	.	.	.	12C	.	.	.	.	.	.	.	.
.	.	.	.	.	.	12C	.	2ee	.	.	.	.	.	.
.	.	.	.	.	.	12C	.	.	.	.	.	.	.	.
.	.	.	.	.	.	12C	.	.	.	.	.	.	.	.
2r	2r	4g	4g	.	.	12C	4gg	.	.	.	.	.	2r	2r
.	.	.	.	.	.	12C	.	.	.	.	.	.	.	.
.	.	.	.	.	.	12C	.	.	.	.	.	.	.	.
.	.	4a-	4a-	4f	.	12C	4aa-	4ff	.	.	.	.	.	.
.	.	.	.	.	.	12C	.	.	.	.	.	.	.	.
.	.	.	.	.	.	12C	.	.	.	.	.	.	.	.
=73	=73	=73	=73	=73	=73	=73	=73	=73	=73	=73	=73	=73	=73	=73
2r	2C	4e	4e	4G	4B-	12C	4ee	4b-	2C]	2C]	1r	1r	2cc	2c
.	.	.	.	.	.	12C	.	.	.	.	.	.	.	.
.	.	.	.	.	.	12C	.	.	.	.	.	.	.	.
.	.	4f	4f	4A-	4A-	12C	4ff	4a-	.	.	.	.	.	.
.	.	.	.	.	.	12C	.	.	.	.	.	.	.	.
.	.	.	.	.	.	12C	.	.	.	.	.	.	.	.
4ccc	2r	4c	4c	4c	4c	4C	4cc	4cc	4c	4c	.	.	2r	2r
4ddd-	.	4d-	4d-	4d-	4d-	4D-	4dd-	4dd-	4d-	4d-	.	.	.	.
=74	=74	=74	=74	=74	=74	=74	=74	=74	=74	=74	=74	=74	=74	=74
4bb	2C	4B	4B	4B	4B	4BB	4b	4b	4B	4B	2r	2r	2cc	2c
4ccc	.	4c	4c	4c	4c	4C	4cc	4cc	4c	4c	.	.	.	.
2r	2r	2r	2r	2r	2r	2r	2r	2r	2r	2r	2r	2r	2r	2r
=75	=75	=75	=75	=75	=75	=75	=75	=75	=75	=75	=75	=75	=75	=75
1r	1r	2r	2r	2r	2r	[1AA-	1r	1r	1r	1r	1r	1r	1r	1r
.	.	8.r	8.r	2c	2e-	.	.	.	.	.	.	.	.	.
.	.	16e-	16e-	.	.	.	.	.	.	.	.	.	.	.
.	.	8.a-	8.a-	.	.	.	.	.	.	.	.	.	.	.
.	.	16cc	16cc	.	.	.	.	.	.	.	.	.	.	.
=76	=76	=76	=76	=76	=76	=76	=76	=76	=76	=76	=76	=76	=76	=76
1r	1r	4cc	4cc	2d-	2G	1AA-_	1r	1r	1e-	2G	1r	1r	1r	1r
.	.	4b-	4b-	.	.	.	.	.	.	.	.	.	.	.
.	.	8a-	8a-	4c	4A-	.	.	.	.	4A-	.	.	.	.
.	.	16r	16r	.	.	.	.	.	.	.	.	.	.	.
.	.	16a-	16a-	.	.	.	.	.	.	.	.	.	.	.
.	.	8.cc	8.cc	4a-	4e-	.	.	.	.	4r	.	.	.	.
.	.	16ee-	16ee-	.	.	.	.	.	.	.	.	.	.	.
=77	=77	=77	=77	=77	=77	=77	=77	=77	=77	=77	=77	=77	=77	=77
1r	1r	4ee-	4ee-	2g	2B-	1AA-]	1r	1r	2B-	2G	1r	1r	1r	1r
.	.	4dd-	4dd-	.	.	.	.	.	.	.	.	.	.	.
.	.	8cc	8cc	4a-	4c	.	.	.	2c	2A-	.	.	.	.
.	.	16r	16r	.	.	.	.	.	.	.	.	.	.	.
.	.	16cc	16cc	.	.	.	.	.	.	.	.	.	.	.
.	.	8.ee-	8.ee-	4cc	4a-	.	.	.	.	.	.	.	.	.
.	.	16aa-	16aa-	.	.	.	.	.	.	.	.	.	.	.
=78	=78	=78	=78	=78	=78	=78	=78	=78	=78	=78	=78	=78	=78	=78
1r	1r	2aa-	2aa-	2.dd-	2.b-	[1E-	1r	1r	2.d-	2.B-	1r	1r	1r	1r
.	.	8.gg	8.gg	.	.	.	.	.	.	.	.	.	.	.
.	.	16aa-	16aa-	.	.	.	.	.	.	.	.	.	.	.
.	.	8.bb-	8.bb-	4cc	4a-	.	.	.	4c	4A-	.	.	.	.
.	.	16ccc	16ccc	.	.	.	.	.	.	.	.	.	.	.
=79	=79	=79	=79	=79	=79	=79	=79	=79	=79	=79	=79	=79	=79	=79
1r	1r	4ddd-	4ddd-	4b-	4g	4E-]	1r	1r	4B-	4G	1r	1r	1r	1r
.	.	2.r	2.r	2.r	2.r	2.r	.	.	2.r	2.r	.	.	.	.
=80	=80	=80	=80	=80	=80	=80	=80	=80	=80	=80	=80	=80	=80	=80
2ccc	1r	2ccc	2ccc	12e- 12c	12e-	12AA-	2ccc	2cc	1g	1c	1cc	1cc	1r	1r
.	.	.	.	12c 12e-	12e-	12AA-	.	.	.	.	.	.	.	.
.	.	.	.	12e- 12c	12e-	12AA-	.	.	.	.	.	.	.	.
.	.	.	.	12c 12e-	12c	12AA-	.	.	.	.	.	.	.	.
.	.	.	.	12c 12e-	12c	12AA-	.	.	.	.	.	.	.	.
.	.	.	.	12e- 12c	12c	12AA-	.	.	.	.	.	.	.	.
4gg	.	4gg	4gg	12c 12e-	12e-	12AA-	4gg	4g	.	.	.	.	.	.
.	.	.	.	12e- 12c	12e-	12AA-	.	.	.	.	.	.	.	.
.	.	.	.	12c 12e-	12e-	12AA-	.	.	.	.	.	.	.	.
4aa-	.	4aa-	4aa-	12c 12e-	12c	12AA-	4aa-	4a-	.	.	.	.	.	.
.	.	.	.	12c 12e-	12c	12AA-	.	.	.	.	.	.	.	.
.	.	.	.	12e- 12c	12c	12AA-	.	.	.	.	.	.	.	.
=81	=81	=81	=81	=81	=81	=81	=81	=81	=81	=81	=81	=81	=81	=81
4ee	1r	4ee	4ee	12d- 12f	12f	12AA-	4ee	4e	1a-	1d-	1dd	1dd	1r	1r
.	.	.	.	12d- 12f	12f	12AA-	.	.	.	.	.	.	.	.
.	.	.	.	12d- 12f	12f	12AA-	.	.	.	.	.	.	.	.
4ff	.	4ff	4ff	12d- 12f	12d-	12AA-	4ff	4f	.	.	.	.	.	.
.	.	.	.	12d- 12f	12d-	12AA-	.	.	.	.	.	.	.	.
.	.	.	.	12f 12d-	12d-	12AA-	.	.	.	.	.	.	.	.
2r	.	2r	2r	12d- 12f	12f	12AA-	2r	2r	.	.	.	.	.	.
.	.	.	.	12f 12d-	12f	12AA-	.	.	.	.	.	.	.	.
.	.	.	.	12f 12d-	12f	12AA-	.	.	.	.	.	.	.	.
.	.	.	.	12f 12d-	12d-	12AA-	.	.	.	.	.	.	.	.
.	.	.	.	12d- 12f	12d-	12AA-	.	.	.	.	.	.	.	.
.	.	.	.	12d- 12f	12d-	12AA-	.	.	.	.	.	.	.	.
=82	=82	=82	=82	=82	=82	=82	=82	=82	=82	=82	=82	=82	=82	=82
2ddd-	1r	2ddd-	2ddd-	12B- 12g	12B-	12AA-	2ddd-	2dd-	1d-	1B-	1cc	1cc	1r	1r
.	.	.	.	12g 12B-	12d-	12AA-	.	.	.	.	.	.	.	.
.	.	.	.	12g 12B-	12d-	12AA-	.	.	.	.	.	.	.	.
.	.	.	.	12B- 12g	12d-	12AA-	.	.	.	.	.	.	.	.
.	.	.	.	12B- 12g	12d-	12AA-	.	.	.	.	.	.	.	.
.	.	.	.	12g 12B-	12d-	12AA-	.	.	.	.	.	.	.	.
4aa	.	4aa	4aa	12B- 12g	12d-	12AA-	4aa	4a	.	.	.	.	.	.
.	.	.	.	12B- 12g	12d-	12AA-	.	.	.	.	.	.	.	.
.	.	.	.	12g 12B-	12d-	12AA-	.	.	.	.	.	.	.	.
4bb-	.	4bb-	4bb-	12B- 12g	12d-	12AA-	4bb-	4b-	.	.	.	.	.	.
.	.	.	.	12B- 12g	12d-	12AA-	.	.	.	.	.	.	.	.
.	.	.	.	12g 12B-	12d-	12AA-	.	.	.	.	.	.	.	.
=83	=83	=83	=83	=83	=83	=83	=83	=83	=83	=83	=83	=83	=83	=83
4bb	1r	4bb	4bb	12a- 12c	12c	12AA-	4bb	4b	1c	1A-	1cc	1cc	1r	1r
.	.	.	.	12c 12e-	12c	12AA-	.	.	.	.	.	.	.	.
.	.	.	.	12e- 12c	12c	12AA-	.	.	.	.	.	.	.	.
4ccc	.	4ccc	4ccc	12c 12e-	12e-	12AA-	4ccc	4cc	.	.	.	.	.	.
.	.	.	.	12c 12e-	12e-	12AA-	.	.	.	.	.	.	.	.
.	.	.	.	12e- 12c	12e-	12AA-	.	.	.	.	.	.	.	.
2r	.	2r	2r	12e- 12c	12c	12AA-	2r	2r	.	.	.	.	.	.
.	.	.	.	12e- 12c	12c	12AA-	.	.	.	.	.	.	.	.
.	.	.	.	12e- 12c	12c	12AA-	.	.	.	.	.	.	.	.
.	.	.	.	12e- 12c	12e-	12AA-	.	.	.	.	.	.	.	.
.	.	.	.	12c 12e-	12e-	12AA-	.	.	.	.	.	.	.	.
.	.	.	.	12e- 12c	12e-	12AA-	.	.	.	.	.	.	.	.
=84	=84	=84	=84	=84	=84	=84	=84	=84	=84	=84	=84	=84	=84	=84
2eee-	1r	2eee-	2eee-	12A 12e-	12c	12FF	1aa	1ee-	1c	1A	1cc	1cc	1r	1r
.	.	.	.	12e- 12A	12c	12FF	.	.	.	.	.	.	.	.
.	.	.	.	12e- 12A	12c	12FF	.	.	.	.	.	.	.	.
.	.	.	.	12A 12e-	12c	12FF	.	.	.	.	.	.	.	.
.	.	.	.	12A 12e-	12c	12FF	.	.	.	.	.	.	.	.
.	.	.	.	12e- 12A	12c	12FF	.	.	.	.	.	.	.	.
4ccc	.	4ccc	4ccc	12A 12e-	12c	12FF	.	.	.	.	.	.	.	.
.	.	.	.	12e- 12A	12c	12FF	.	.	.	.	.	.	.	.
.	.	.	.	12e- 12A	12c	12FF	.	.	.	.	.	.	.	.
4aa	.	4aa	4aa	12A 12e-	12c	12FF	.	.	.	.	.	.	.	.
.	.	.	.	12e- 12A	12c	12FF	.	.	.	.	.	.	.	.
.	.	.	.	12e- 12A	12c	12FF	.	.	.	.	.	.	.	.
=85	=85	=85	=85	=85	=85	=85	=85	=85	=85	=85	=85	=85	=85	=85
2bb-	1r	2bb-	2bb-	12d-	12f	12FF	1bb-	1dd-	1d-	1B-	[1gg	[1g	1r	1r
.	.	.	.	12d-	12f	12FF	.	.	.	.	.	.	.	.
.	.	.	.	12d-	12f	12FF	.	.	.	.	.	.	.	.
.	.	.	.	12f	12d-	12FF	.	.	.	.	.	.	.	.
.	.	.	.	12f	12d-	12FF	.	.	.	.	.	.	.	.
.	.	.	.	12f	12d-	12FF	.	.	.	.	.	.	.	.
4ff	.	4ff	4ff	12b-	12d-	12FF	.	.	.	.	.	.	.	.
.	.	.	.	12b-	12d-	12FF	.	.	.	.	.	.	.	.
.	.	.	.	12b-	12d-	12FF	.	.	.	.	.	.	.	.
4dd-	.	4dd-	4dd-	12B-	12f	12FF	.	.	.	.	.	.	.	.
.	.	.	.	12B-	12f	12FF	.	.	.	.	.	.	.	.
.	.	.	.	12B-	12f	12FF	.	.	.	.	.	.	.	.
=86	=86	=86	=86	=86	=86	=86	=86	=86	=86	=86	=86	=86	=86	=86
2.ddd-	1r	2bb-	2bb-	12e	12d-	12FF	1ee	1bb-	1e	1B-	1gg]	1g]	1r	1r
.	.	.	.	12e	12d-	12FF	.	.	.	.	.	.	.	.
.	.	.	.	12e	12d-	12FF	.	.	.	.	.	.	.	.
.	.	.	.	12dd-	12B-	12FF	.	.	.	.	.	.	.	.
.	.	.	.	12dd-	12B-	12FF	.	.	.	.	.	.	.	.
.	.	.	.	12dd-	12B-	12FF	.	.	.	.	.	.	.	.
.	.	4ddd-	4ddd-	12b-	12F	12FF	.	.	.	.	.	.	.	.
.	.	.	.	12b-	12F	12FF	.	.	.	.	.	.	.	.
.	.	.	.	12b-	12F	12FF	.	.	.	.	.	.	.	.
4bb-	.	4ee	4ee	12B-	12F	12FF	.	.	.	.	.	.	.	.
.	.	.	.	12B-	12F	12FF	.	.	.	.	.	.	.	.
.	.	.	.	12B-	12F	12FF	.	.	.	.	.	.	.	.
=87	=87	=87	=87	=87	=87	=87	=87	=87	=87	=87	=87	=87	=87	=87
4ff	1r	4ff	4ff	4A	8f	4FF	4ff	4aa	8f	8f	4dd	4dd	1r	1r
.	.	.	.	.	8e	.	.	.	8e	8e	.	.	.	.
2.r	.	2r	2r	2r	8f	2.r	2.r	2.r	8f	8f	2.r	2.r	.	.
.	.	.	.	.	8g	.	.	.	8g	8g	.	.	.	.
.	.	.	.	.	8f	.	.	.	8f	8f	.	.	.	.
.	.	.	.	.	8e-	.	.	.	8e-	8e-	.	.	.	.
.	.	8.r	8.r	8.r	8d	.	.	.	8d	8d	.	.	.	.
.	.	.	.	.	8c	.	.	.	8c	8c	.	.	.	.
.	.	16ff	16ff	16dd	.	.	.	.	.	.	.	.	.	.
=88	=88	=88	=88	=88	=88	=88	=88	=88	=88	=88	=88	=88	=88	=88
1r	1r	4ff	4ff	4dd	4B-	4BB-	1r	1r	4B-	4BB-	[1dd	[1dd	1r	1r
.	.	8dd	8dd	8b-	2.r	2.r	.	.	2.r	2.r	.	.	.	.
.	.	16r	16r	16r	.	.	.	.	.	.	.	.	.	.
.	.	16dd	16dd	16b-	.	.	.	.	.	.	.	.	.	.
.	.	4dd	4dd	4b-	.	.	.	.	.	.	.	.	.	.
.	.	8b-	8b-	8f	.	.	.	.	.	.	.	.	.	.
.	.	16r	16r	16r	.	.	.	.	.	.	.	.	.	.
.	.	16f	16f	16d	.	.	.	.	.	.	.	.	.	.
=89	=89	=89	=89	=89	=89	=89	=89	=89	=89	=89	=89	=89	=89	=89
8r	1r	8f	8f	8d	4B-	4BB-	1r	1r	8r	1r	1dd_	1dd_	1r	1r
8ff	.	8e-	8e-	8c	.	.	.	.	8F	.	.	.	.	.
8gg	.	8e-	8e-	8c	2.r	2.r	.	.	8G	.	.	.	.	.
8aa	.	8d	8d	8B-	.	.	.	.	8A	.	.	.	.	.
8bb-	.	4d	4d	4B-	.	.	.	.	8B-	.	.	.	.	.
8ccc	.	.	.	.	.	.	.	.	8c	.	.	.	.	.
8ddd	.	8.r	8.r	8.r	.	.	.	.	8d	.	.	.	.	.
8r	.	.	.	.	.	.	.	.	8r	.	.	.	.	.
.	.	16ee-	16ee-	16cc	.	.	.	.	.	.	.	.	.	.
=90	=90	=90	=90	=90	=90	=90	=90	=90	=90	=90	=90	=90	=90	=90
1r	1r	4ee-	4ee-	4cc	4f	4F	1r	1r	1r	1r	1dd_	1dd_	1r	1r
.	.	8cc	8cc	8a	2.r	2.r	.	.	.	.	.	.	.	.
.	.	16r	16r	16r	.	.	.	.	.	.	.	.	.	.
.	.	16cc	16cc	16a	.	.	.	.	.	.	.	.	.	.
.	.	4cc	4cc	4a	.	.	.	.	.	.	.	.	.	.
.	.	8a	8a	8e-	.	.	.	.	.	.	.	.	.	.
.	.	16r	16r	16r	.	.	.	.	.	.	.	.	.	.
.	.	16e-	16e-	16c	.	.	.	.	.	.	.	.	.	.
=91	=91	=91	=91	=91	=91	=91	=91	=91	=91	=91	=91	=91	=91	=91
8r	1r	8e-	8e-	8c	4f	4F	1r	1r	8r	1r	1dd_	1dd]	1r	1r
8ff	.	8d	8d	8B-	.	.	.	.	8F	.	.	.	.	.
8aa	.	8d	8d	8B-	2.r	2.r	.	.	8A	.	.	.	.	.
8bb-	.	8c	8c	8A	.	.	.	.	8B-	.	.	.	.	.
8ccc	.	4c	4c	4A	.	.	.	.	8c	.	.	.	.	.
8ddd	.	.	.	.	.	.	.	.	8d	.	.	.	.	.
8eee-	.	8.r	8.r	4r	.	.	.	.	8e-	.	.	.	.	.
8r	.	.	.	.	.	.	.	.	8r	.	.	.	.	.
.	.	16ff	16ff	.	.	.	.	.	.	.	.	.	.	.
=92	=92	=92	=92	=92	=92	=92	=92	=92	=92	=92	=92	=92	=92	=92
1r	1r	4.ff	4.ff	8d	1B- 1d	1r	1r	1r	1r	1r	1dd_	1g	1r	1r
.	.	.	.	8b-	.	.	.	.	.	.	.	.	.	.
.	.	.	.	8f	.	.	.	.	.	.	.	.	.	.
.	.	16gg	16gg	8b-	.	.	.	.	.	.	.	.	.	.
.	.	16aa	16aa	.	.	.	.	.	.	.	.	.	.	.
.	.	8bb-	8bb-	8d	.	.	.	.	.	.	.	.	.	.
.	.	6..r	6..r	8b-	.	.	.	.	.	.	.	.	.	.
.	.	.	.	8f	.	.	.	.	.	.	.	.	.	.
.	.	.	.	8d	.	.	.	.	.	.	.	.	.	.
.	.	16bb-	16bb-	.	.	.	.	.	.	.	.	.	.	.
=93	=93	=93	=93	=93	=93	=93	=93	=93	=93	=93	=93	=93	=93	=93
1r	1r	4.aa	4.aa	8c	2F 2c	1r	1r	1r	1r	1r	1dd_	1dd	1r	1r
.	.	.	.	8f	.	.	.	.	.	.	.	.	.	.
.	.	.	.	8e-	.	.	.	.	.	.	.	.	.	.
.	.	16ccc	16ccc	8f	.	.	.	.	.	.	.	.	.	.
.	.	16ddd	16ddd	.	.	.	.	.	.	.	.	.	.	.
.	.	8eee-	8eee-	8c	2A 2F	.	.	.	.	.	.	.	.	.
.	.	6..r	6..r	8f	.	.	.	.	.	.	.	.	.	.
.	.	.	.	8e-	.	.	.	.	.	.	.	.	.	.
.	.	.	.	8f	.	.	.	.	.	.	.	.	.	.
.	.	16gg	16gg	.	.	.	.	.	.	.	.	.	.	.
=94	=94	=94	=94	=94	=94	=94	=94	=94	=94	=94	=94	=94	=94	=94
4.ff	1r	4.ff	4.ff	8d	1B-	2BB-	1ff	1dd	1B-	1B-	2dd]	2g	1r	1r
.	.	.	.	8b-	.	.	.	.	.	.	.	.	.	.
.	.	.	.	8f	.	.	.	.	.	.	.	.	.	.
16gg	.	16gg	16gg	8b-	.	.	.	.	.	.	.	.	.	.
16aa	.	16aa	16aa	.	.	.	.	.	.	.	.	.	.	.
8bb-	.	8bb-	8bb-	8d	.	2r	.	.	.	.	2r	2r	.	.
6..r	.	6..r	6..r	8f	.	.	.	.	.	.	.	.	.	.
.	.	.	.	8d	.	.	.	.	.	.	.	.	.	.
.	.	.	.	8B-	.	.	.	.	.	.	.	.	.	.
16dd	.	16dd	16dd	.	.	.	.	.	.	.	.	.	.	.
=95	=95	=95	=95	=95	=95	=95	=95	=95	=95	=95	=95	=95	=95	=95
4.cc	1r	4.cc	4.cc	8A	1F#	1D	1ff#	1cc	1A	1D	1r	1r	1r	1r
.	.	.	.	8f#	.	.	.	.	.	.	.	.	.	.
.	.	.	.	8c	.	.	.	.	.	.	.	.	.	.
16ff#	.	16ff#	16ff#	8f#	.	.	.	.	.	.	.	.	.	.
16gg	.	16gg	16gg	.	.	.	.	.	.	.	.	.	.	.
8aa	.	8aa	8aa	8A	.	.	.	.	.	.	.	.	.	.
6..r	.	6..r	6..r	8f#	.	.	.	.	.	.	.	.	.	.
.	.	.	.	8c	.	.	.	.	.	.	.	.	.	.
.	.	.	.	8f#	.	.	.	.	.	.	.	.	.	.
16cc	.	16cc	16cc	.	.	.	.	.	.	.	.	.	.	.
=96	=96	=96	=96	=96	=96	=96	=96	=96	=96	=96	=96	=96	=96	=96
4.b-	1r	4.b-	4.b-	8G	1G	2G	1gg	2b-	1B-	1G	1r	1r	1r	1r
.	.	.	.	8g	.	.	.	.	.	.	.	.	.	.
.	.	.	.	8d	.	.	.	.	.	.	.	.	.	.
16cc	.	16cc	16cc	8B-	.	.	.	.	.	.	.	.	.	.
16dd	.	16dd	16dd	.	.	.	.	.	.	.	.	.	.	.
4ee-	.	4ee-	4ee-	8G	.	2r	.	2ee-	.	.	.	.	.	.
.	.	.	.	8e-	.	.	.	.	.	.	.	.	.	.
4ee-	.	4ee-	4ee-	8G	.	.	.	.	.	.	.	.	.	.
.	.	.	.	8e-	.	.	.	.	.	.	.	.	.	.
=97	=97	=97	=97	=97	=97	=97	=97	=97	=97	=97	=97	=97	=97	=97
4.dd	1r	4.dd	4.dd	8A-	1F	1BB-	1aa-	1dd	1A-	1F	1dd	1g	1r	1r
.	.	.	.	8f	.	.	.	.	.	.	.	.	.	.
.	.	.	.	8d	.	.	.	.	.	.	.	.	.	.
16ff	.	16ff	16ff	8a-	.	.	.	.	.	.	.	.	.	.
16gg	.	16gg	16gg	.	.	.	.	.	.	.	.	.	.	.
4aa-	.	4aa-	4aa-	8f	.	.	.	.	.	.	.	.	.	.
.	.	.	.	8dd	.	.	.	.	.	.	.	.	.	.
4aa-	.	4aa-	4aa-	8ff	.	.	.	.	.	.	.	.	.	.
.	.	.	.	8dd	.	.	.	.	.	.	.	.	.	.
=98	=98	=98	=98	=98	=98	=98	=98	=98	=98	=98	=98	=98	=98	=98
4gg	1r	12gg	12gg	2ee-	2E-	2E-	4gg	4ee-	4G	4E-	4ee	4cc	1r	1r
.	.	12ccc	12ccc	.	.	.	.	.	.	.	.	.	.	.
.	.	12bb-	12bb-	.	.	.	.	.	.	.	.	.	.	.
2.r	.	12aa-	12aa-	.	.	.	2.r	2.r	2.r	2.r	2.r	2.r	.	.
.	.	12gg	12gg	.	.	.	.	.	.	.	.	.	.	.
.	.	12ff	12ff	.	.	.	.	.	.	.	.	.	.	.
.	.	12ee-	12ee-	4b	2r	2r	.	.	.	.	.	.	.	.
.	.	12aa-	12aa-	.	.	.	.	.	.	.	.	.	.	.
.	.	12gg	12gg	.	.	.	.	.	.	.	.	.	.	.
.	.	12ff	12ff	4cc	.	.	.	.	.	.	.	.	.	.
.	.	12ee-	12ee-	.	.	.	.	.	.	.	.	.	.	.
.	.	12dd	12dd	.	.	.	.	.	.	.	.	.	.	.
=99	=99	=99	=99	=99	=99	=99	=99	=99	=99	=99	=99	=99	=99	=99
1r	1r	12cc	12cc	4a	1r	1r	1r	1r	1r	1r	1r	1r	1r	1r
.	.	12gg	12gg	.	.	.	.	.	.	.	.	.	.	.
.	.	12ff	12ff	.	.	.	.	.	.	.	.	.	.	.
.	.	12ee-	12ee-	4b-	.	.	.	.	.	.	.	.	.	.
.	.	12dd	12dd	.	.	.	.	.	.	.	.	.	.	.
.	.	12cc	12cc	.	.	.	.	.	.	.	.	.	.	.
.	.	12dd	12dd	2r	.	.	.	.	.	.	.	.	.	.
.	.	12ff	12ff	.	.	.	.	.	.	.	.	.	.	.
.	.	12ee-	12ee-	.	.	.	.	.	.	.	.	.	.	.
.	.	12dd	12dd	.	.	.	.	.	.	.	.	.	.	.
.	.	12cc	12cc	.	.	.	.	.	.	.	.	.	.	.
.	.	12b-	12b-	.	.	.	.	.	.	.	.	.	.	.
=100	=100	=100	=100	=100	=100	=100	=100	=100	=100	=100	=100	=100	=100	=100
1r	1r	12dd	12dd	12dd	2b-	2B-	1r	1r	1r	1r	1r	1r	1r	1r
.	.	12gg	12gg	12gg	.	.	.	.	.	.	.	.	.	.
.	.	12ff	12ff	12ff	.	.	.	.	.	.	.	.	.	.
.	.	12ee-	12ee-	12ee-	.	.	.	.	.	.	.	.	.	.
.	.	12dd	12dd	12dd	.	.	.	.	.	.	.	.	.	.
.	.	12cc	12cc	12cc	.	.	.	.	.	.	.	.	.	.
.	.	12b-	12b-	12b-	4f#	4F#	.	.	.	.	.	.	.	.
.	.	12ee-	12ee-	12ee-	.	.	.	.	.	.	.	.	.	.
.	.	12dd	12dd	12dd	.	.	.	.	.	.	.	.	.	.
.	.	12cc	12cc	12cc	4g	4G	.	.	.	.	.	.	.	.
.	.	12b-	12b-	12b-	.	.	.	.	.	.	.	.	.	.
.	.	12a	12a	12a	.	.	.	.	.	.	.	.	.	.
=101	=101	=101	=101	=101	=101	=101	=101	=101	=101	=101	=101	=101	=101	=101
1r	1r	12b-	12b-	12b-	4e	4E	1r	1r	1r	1r	1r	1r	1r	1r
.	.	12dd	12dd	12dd	.	.	.	.	.	.	.	.	.	.
.	.	12cc	12cc	12cc	.	.	.	.	.	.	.	.	.	.
.	.	12b-	12b-	12b-	4f	4F	.	.	.	.	.	.	.	.
.	.	12a	12a	12a	.	.	.	.	.	.	.	.	.	.
.	.	12g	12g	12g	.	.	.	.	.	.	.	.	.	.
.	.	12a	12a	12a	2r	2r	.	.	.	.	.	.	.	.
.	.	12cc	12cc	12cc	.	.	.	.	.	.	.	.	.	.
.	.	12b-	12b-	12b-	.	.	.	.	.	.	.	.	.	.
.	.	12a	12a	12a	.	.	.	.	.	.	.	.	.	.
.	.	12g	12g	12g	.	.	.	.	.	.	.	.	.	.
.	.	12f	12f	12f	.	.	.	.	.	.	.	.	.	.
=102	=102	=102	=102	=102	=102	=102	=102	=102	=102	=102	=102	=102	=102	=102
1r	1r	12a	12a	12a	4f#	4F#	1r	1r	1r	1r	1r	1r	1r	1r
.	.	12ee-	12ee-	12ee-	.	.	.	.	.	.	.	.	.	.
.	.	12dd	12dd	12dd	.	.	.	.	.	.	.	.	.	.
.	.	12cc	12cc	12cc	4g	4G	.	.	.	.	.	.	.	.
.	.	12b-	12b-	12b-	.	.	.	.	.	.	.	.	.	.
.	.	12a	12a	12a	.	.	.	.	.	.	.	.	.	.
.	.	12b-	12b-	12b-	2r	2r	.	.	.	.	.	.	.	.
.	.	12dd	12dd	12dd	.	.	.	.	.	.	.	.	.	.
.	.	12cc	12cc	12cc	.	.	.	.	.	.	.	.	.	.
.	.	12b-	12b-	12b-	.	.	.	.	.	.	.	.	.	.
.	.	12a	12a	12a	.	.	.	.	.	.	.	.	.	.
.	.	12g	12g	12g	.	.	.	.	.	.	.	.	.	.
=103	=103	=103	=103	=103	=103	=103	=103	=103	=103	=103	=103	=103	=103	=103
1r	1r	12gg	12gg	12gg	4e-	4E-	1cc#	1g	1e-	1e-	2cc	2cc	1r	1r
.	.	12ff#	12ff#	12ff#	.	.	.	.	.	.	.	.	.	.
.	.	12gg	12gg	12gg	.	.	.	.	.	.	.	.	.	.
.	.	12bb-	12bb-	12bb-	4ee-	4e-	.	.	.	.	.	.	.	.
.	.	12aa	12aa	12aa	.	.	.	.	.	.	.	.	.	.
.	.	12gg	12gg	12gg	.	.	.	.	.	.	.	.	.	.
.	.	12cc#	12cc#	12cc#	2r	2r	.	.	.	.	2r	2r	.	.
.	.	12ff#	12ff#	12ff#	.	.	.	.	.	.	.	.	.	.
.	.	12gg	12gg	12gg	.	.	.	.	.	.	.	.	.	.
.	.	12bb-	12bb-	12bb-	.	.	.	.	.	.	.	.	.	.
.	.	12aa	12aa	12aa	.	.	.	.	.	.	.	.	.	.
.	.	12gg	12gg	12gg	.	.	.	.	.	.	.	.	.	.
=104	=104	=104	=104	=104	=104	=104	=104	=104	=104	=104	=104	=104	=104	=104
2ddd	1r	2ddd	2ddd	2ddd	2dd	2d	2ddd	4f#	2d	2d	1r	1r	1r	1r
.	.	.	.	.	.	.	.	4dd	.	.	.	.	.	.
4aa	.	4aa	4aa	4aa	4a	4A	4aa	4a	4A	4A	.	.	.	.
4bb-	.	4bb-	4bb-	4bb-	4b-	4B-	4bb-	4b-	4B-	4B-	.	.	.	.
=105	=105	=105	=105	=105	=105	=105	=105	=105	=105	=105	=105	=105	=105	=105
4ff#	1r	4ff#	4ff#	4ff#	4f#	4F#	4ff#	4f#	4F#	4F#	1r	1r	1r	1r
4gg	.	4gg	4gg	4gg	4g	4G	4gg	4g	4G	4G	.	.	.	.
4dd	.	4dd	4dd	4dd	4d	4D	4dd	4dd	4D	4D	.	.	.	.
4ee-	.	4ee-	4ee-	4ee-	4e-	4E-	4ee-	4ee-	4E-	4E-	.	.	.	.
=106	=106	=106	=106	=106	=106	=106	=106	=106	=106	=106	=106	=106	=106	=106
4cc#	1r	4cc#	4cc#	4cc#	4c#	4C#	4cc#	4cc#	4C#	4C#	1r	1r	1r	1r
4dd	.	4dd	4dd	4dd	4d	4D	4dd	4dd	4D	4D	.	.	.	.
4ddd	.	2r	2r	2r	2r	2r	4bb-	4dd	2r	2r	.	.	.	.
4ccc	.	.	.	.	.	.	4aa	4ee-	.	.	.	.	.	.
=107	=107	=107	=107	=107	=107	=107	=107	=107	=107	=107	=107	=107	=107	=107
4bb-	1r	2r	2r	2r	2r	2r	4gg	4cc#	2r	2r	1r	1r	1r	1r
4aa	.	.	.	.	.	.	4ff#	4dd	.	.	.	.	.	.
2r	.	12d	12d	12d	12d	12D	2r	2r	12D	12D	.	.	.	.
.	.	12e-	12e-	12e-	12e-	12E-	.	.	12E-	12E-	.	.	.	.
.	.	12d	12d	12d	12d	12D	.	.	12D	12D	.	.	.	.
.	.	12c	12c	12c	12c	12C	.	.	12C	12C	.	.	.	.
.	.	12B-	12B-	12B-	12B-	12BB-	.	.	12BB-	12BB-	.	.	.	.
.	.	12A	12A	12A	12A	12AA	.	.	12AA	12AA	.	.	.	.
=108	=108	=108	=108	=108	=108	=108	=108	=108	=108	=108	=108	=108	=108	=108
1r	1r	4G	4G	12G	12G	4GG	2r	2r	4GG	4GG	1r	1r	1r	1r
.	.	.	.	12B-	12B-	.	.	.	.	.	.	.	.	.
.	.	.	.	12c	12c	.	.	.	.	.	.	.	.	.
.	.	2.r	2.r	12d	12d	2.r	.	.	2.r	2.r	.	.	.	.
.	.	.	.	12e	12e	.	.	.	.	.	.	.	.	.
.	.	.	.	12f#	12f#	.	.	.	.	.	.	.	.	.
.	.	.	.	4g	4g	.	4gg	4ee-	.	.	.	.	.	.
.	.	.	.	4a-	4a-	.	4ff	4dd	.	.	.	.	.	.
=109	=109	=109	=109	=109	=109	=109	=109	=109	=109	=109	=109	=109	=109	=109
1r	1r	1r	1r	4f#	4f#	1r	4ee-	4cc	2r	2r	1r	1r	1r	1r
.	.	.	.	4g	4g	.	4dd	4b	.	.	.	.	.	.
.	.	.	.	2r	12G	.	2r	2r	12G	12G	.	.	.	.
.	.	.	.	.	12A-	.	.	.	12A-	12A-	.	.	.	.
.	.	.	.	.	12G	.	.	.	12G	12G	.	.	.	.
.	.	.	.	.	12F	.	.	.	12F	12F	.	.	.	.
.	.	.	.	.	12E-	.	.	.	12E-	12E-	.	.	.	.
.	.	.	.	.	12D	.	.	.	12D	12D	.	.	.	.
=110	=110	=110	=110	=110	=110	=110	=110	=110	=110	=110	=110	=110	=110	=110
2ccc	2C	2ccc	2ccc	2cc	8C	8r	2ccc	2cc	8C	8C	2cc	2c	2cc	2c
.	.	.	.	.	8a-	8A-	.	.	8A-	8A-	.	.	.	.
.	.	.	.	.	8g	8G	.	.	8G	8G	.	.	.	.
.	.	.	.	.	8f	8F	.	.	8F	8F	.	.	.	.
4gg	2r	4gg	4gg	4g	8e-	8E-	4gg	4gg	8E-	8E-	2r	2r	2r	2r
.	.	.	.	.	8d	8D	.	.	8D	8D	.	.	.	.
4aa-	.	4aa-	4aa-	4a-	8c	8C	4aa-	4ee-	8C	8C	.	.	.	.
.	.	.	.	.	8cc	8c	.	.	8c	8c	.	.	.	.
=111	=111	=111	=111	=111	=111	=111	=111	=111	=111	=111	=111	=111	=111	=111
4ff#	1r	4ff#	4ff#	4f#	8dd	8d	4ff#	4r	8d	8d	1r	1r	1r	1r
.	.	.	.	.	8cc	8c	.	.	8c	8c	.	.	.	.
4gg	.	4gg	4gg	4g	8b	8B	4gg	4dd	8B	8B	.	.	.	.
.	.	.	.	.	8g	8G	.	.	8G	8G	.	.	.	.
4ee	.	4ee	4ee	4e	8cc	8c	4ee	4r	8c	8c	.	.	.	.
.	.	.	.	.	8b-	8B-	.	.	8B-	8B-	.	.	.	.
4ff	.	4ff	4ff	4f	8a	8A	4ff	4cc	8A	8A	.	.	.	.
.	.	.	.	.	8f	8F	.	.	8F	8F	.	.	.	.
=112	=112	=112	=112	=112	=112	=112	=112	=112	=112	=112	=112	=112	=112	=112
4dd	1r	4dd	4dd	4d	8b-	8B-	4dd	4r	8B-	8B-	1r	1r	1r	1r
.	.	.	.	.	8a-	8A-	.	.	8A-	8A-	.	.	.	.
4ee-	.	4ee-	4ee-	4e-	8g	8G	4ee-	4b-	8G	8G	.	.	.	.
.	.	.	.	.	8e-	8E-	.	.	8E-	8E-	.	.	.	.
4cc	.	4cc	4cc	4c	8a-	8A-	4cc	4r	8A-	8A-	.	.	.	.
.	.	.	.	.	8g	8G	.	.	8G	8G	.	.	.	.
4dd	.	4dd	4dd	4d	8f	8F	4dd	4a-	8F	8F	.	.	.	.
.	.	.	.	.	8d	8D	.	.	8D	8D	.	.	.	.
=113	=113	=113	=113	=113	=113	=113	=113	=113	=113	=113	=113	=113	=113	=113
2gg	2GG	2gg	2gg	2B	2g	[1G	[1gg	2g	8B	8B	[1ee	[1e	[1gg	[1g
.	.	.	.	.	.	.	.	.	8d	8d	.	.	.	.
.	.	.	.	.	.	.	.	.	8e-	8e-	.	.	.	.
.	.	.	.	.	.	.	.	.	8d	8d	.	.	.	.
4ddd	2r	4dd	4dd	2g	4B	.	.	2gg	8B	8B	.	.	.	.
.	.	.	.	.	.	.	.	.	8d	8d	.	.	.	.
4eee-	.	4ee-	4ee-	.	4c	.	.	.	8c	8c	.	.	.	.
.	.	.	.	.	.	.	.	.	8e-	8e-	.	.	.	.
=114	=114	=114	=114	=114	=114	=114	=114	=114	=114	=114	=114	=114	=114	=114
4bb	2GG	4b	4b	4d	4f	1G_	2.gg]	4dd	8B	8B	1ee]	1e]	1gg]	1g]
.	.	.	.	.	.	.	.	.	8g	8g	.	.	.	.
4ccc	.	4cc	4cc	4e-	4e-	.	.	4ee-	8e-	8e-	.	.	.	.
.	.	.	.	.	.	.	.	.	8c	8c	.	.	.	.
4gg	2r	4g	4g	4B	4d	.	.	4b	8B	8B	.	.	.	.
.	.	.	.	.	.	.	.	.	8G	8G	.	.	.	.
4aa-	.	4a-	4a-	4c	4e-	.	4aa-	4cc	8c	8c	.	.	.	.
.	.	.	.	.	.	.	.	.	8G	8G	.	.	.	.
=115	=115	=115	=115	=115	=115	=115	=115	=115	=115	=115	=115	=115	=115	=115
4ff#	1r	4f#	4f#	4e-	4c	2G]	4ff#	4ee-	4e-	4e-	1r	1r	1r	1r
4gg	.	4g	4g	4d	4B	.	4gg	4dd	4d	4d	.	.	.	.
2r	.	4f	4f	4A-	2r	4D	2r	2r	2r	2r	.	.	.	.
.	.	4f	4f	4A-	.	4E-	.	.	.	.	.	.	.	.
=116	=116	=116	=116	=116	=116	=116	=116	=116	=116	=116	=116	=116	=116	=116
1r	1r	4f	4f	4A-	1r	4C	2r	1r	1r	1r	1r	1r	1r	1r
.	.	4r	4r	4r	.	4BB	.	.	.	.	.	.	.	.
.	.	4f	4f	4A-	.	2r	4dd	.	.	.	.	.	.	.
.	.	4f	4f	4A-	.	.	4ff	.	.	.	.	.	.	.
=117	=117	=117	=117	=117	=117	=117	=117	=117	=117	=117	=117	=117	=117	=117
1r	1r	4f	4f	4A-	1r	2r	4cc	1r	1r	1r	1r	1r	1r	1r
.	.	4r	4r	4r	.	.	4b	.	.	.	.	.	.	.
.	.	4f	4f	4A-	.	4D	2r	.	.	.	.	.	.	.
.	.	4f	4f	4A-	.	4E-	.	.	.	.	.	.	.	.
=118	=118	=118	=118	=118	=118	=118	=118	=118	=118	=118	=118	=118	=118	=118
1r	1r	4f	4f	4A-	1r	4C	2r	2r	1r	1r	1r	1r	1r	1r
.	.	2.r	2.r	2.r	.	4BB	.	.	.	.	.	.	.	.
.	.	.	.	.	.	2r	8ff	8dd	.	.	.	.	.	.
.	.	.	.	.	.	.	8gg	8ee-	.	.	.	.	.	.
.	.	.	.	.	.	.	8aa-	8ff	.	.	.	.	.	.
.	.	.	.	.	.	.	8ff	8dd	.	.	.	.	.	.
=119	=119	=119	=119	=119	=119	=119	=119	=119	=119	=119	=119	=119	=119	=119
1r	1r	2r	2r	1r	1r	1r	4ee-	4cc	1r	1r	1r	1r	1r	1r
.	.	.	.	.	.	.	4dd	4b	.	.	.	.	.	.
.	.	8.r	8.r	.	.	.	2r	2r	.	.	.	.	.	.
.	.	16G	16G	.	.	.	.	.	.	.	.	.	.	.
.	.	8.c	8.c	.	.	.	.	.	.	.	.	.	.	.
.	.	16e-	16e-	.	.	.	.	.	.	.	.	.	.	.
=120	=120	=120	=120	=120	=120	=120	=120	=120	=120	=120	=120	=120	=120	=120
1r	1r	4e-	4e-	2B	2F	2F	1r	1r	1r	1r	1r	1r	1r	1r
.	.	4d	4d	.	.	.	.	.	.	.	.	.	.	.
.	.	8c	8c	4c	4E-	4E-	.	.	.	.	.	.	.	.
.	.	16r	16r	.	.	.	.	.	.	.	.	.	.	.
.	.	16c	16c	.	.	.	.	.	.	.	.	.	.	.
.	.	8.e-	8.e-	4r	4r	4r	.	.	.	.	.	.	.	.
.	.	16g	16g	.	.	.	.	.	.	.	.	.	.	.
=121	=121	=121	=121	=121	=121	=121	=121	=121	=121	=121	=121	=121	=121	=121
1r	1r	4g	4g	2B	2.G	2D	1r	1r	1r	1r	1r	1r	1r	1r
.	.	4f	4f	.	.	.	.	.	.	.	.	.	.	.
.	.	8e-	8e-	4c	.	4C	.	.	.	.	.	.	.	.
.	.	16r	16r	.	.	.	.	.	.	.	.	.	.	.
.	.	16e-	16e-	.	.	.	.	.	.	.	.	.	.	.
.	.	8.g	8.g	4r	4r	4r	.	.	.	.	.	.	.	.
.	.	16cc	16cc	.	.	.	.	.	.	.	.	.	.	.
=122	=122	=122	=122	=122	=122	=122	=122	=122	=122	=122	=122	=122	=122	=122
1r	1r	2cc	2cc	2.f	2.d	[1G	1r	1r	2.f	2.d	1r	1r	1r	1r
.	.	8b	8b	.	.	.	.	.	.	.	.	.	.	.
.	.	8cc	8cc	.	.	.	.	.	.	.	.	.	.	.
.	.	8dd	8dd	4e-	4c	.	.	.	4e-	4c	.	.	.	.
.	.	8ee-	8ee-	.	.	.	.	.	.	.	.	.	.	.
=123	=123	=123	=123	=123	=123	=123	=123	=123	=123	=123	=123	=123	=123	=123
1r	1r	4ff	4ff	4d	4B	4G]	1r	1r	4d	4B	1r	1r	1r	1r
.	.	4r	4r	4r	2.r	2.r	.	.	2.r	2.r	.	.	.	.
.	.	8dd	8dd	8b	.	.	.	.	.	.	.	.	.	.
.	.	8ee-	8ee-	8cc	.	.	.	.	.	.	.	.	.	.
.	.	8ff	8ff	8dd	.	.	.	.	.	.	.	.	.	.
.	.	8gg	8gg	8ee-	.	.	.	.	.	.	.	.	.	.
=124	=124	=124	=124	=124	=124	=124	=124	=124	=124	=124	=124	=124	=124	=124
1r	1r	4aa-	4aa-	4ff	4r	1r	1r	1r	1r	1r	1r	1r	1r	1r
.	.	2aa-	2aa-	2ff	4B	.	.	.	.	.	.	.	.	.
.	.	.	.	.	4c	.	.	.	.	.	.	.	.	.
.	.	4gg	4gg	4ee-	4g	.	.	.	.	.	.	.	.	.
=125	=125	=125	=125	=125	=125	=125	=125	=125	=125	=125	=125	=125	=125	=125
1r	1r	4ff	4ff	4dd	4a-	1r	1r	1r	1r	1r	1r	1r	1r	1r
.	.	2ee-	2ee-	2cc	4g	.	.	.	.	.	.	.	.	.
.	.	.	.	.	4f#	.	.	.	.	.	.	.	.	.
.	.	4dd	4dd	4b	4g	.	.	.	.	.	.	.	.	.
=126	=126	=126	=126	=126	=126	=126	=126	=126	=126	=126	=126	=126	=126	=126
1r	1r	4dd-	4dd-	4b-	4e	1r	1r	1r	1r	1r	1r	1r	1r	1r
.	.	2cc	2cc	2a-	4f	.	.	.	.	.	.	.	.	.
.	.	.	.	.	4d	.	.	.	.	.	.	.	.	.
.	.	4b-	4b-	4g	4e-	.	.	.	.	.	.	.	.	.
=127	=127	=127	=127	=127	=127	=127	=127	=127	=127	=127	=127	=127	=127	=127
1r	1r	4a-	4a-	4f	4B	1r	1r	1r	1r	1r	1r	1r	1r	1r
.	.	2g	2g	2e-	4c	.	.	.	.	.	.	.	.	.
.	.	.	.	.	4A	.	.	.	.	.	.	.	.	.
.	.	[4f	[4f	[4d	4B	.	.	.	.	.	.	.	.	.
=128	=128	=128	=128	=128	=128	=128	=128	=128	=128	=128	=128	=128	=128	=128
1r	1r	4f]	4f]	4d]	4G	4GG	1r	1r	1r	1r	1r	1r	1r	1r
.	.	2e-	2e-	2c	4A-	4AA-	.	.	.	.	.	.	.	.
.	.	.	.	.	4F#	4FF#	.	.	.	.	.	.	.	.
.	.	4d	4d	8B	4G	4GG	.	.	.	.	.	.	.	.
.	.	.	.	8d	.	.	.	.	.	.	.	.	.	.
=129	=129	=129	=129	=129	=129	=129	=129	=129	=129	=129	=129	=129	=129	=129
1r	1r	4c	4c	8e	8c	4C	1r	1r	[1e	[1c	1r	1r	1r	1r
.	.	.	.	8G	8G	.	.	.	.	.	.	.	.	.
.	.	2r	2r	8e	8c	2.r	.	.	.	.	.	.	.	.
.	.	.	.	8G	8G	.	.	.	.	.	.	.	.	.
.	.	.	.	8e	8c	.	.	.	.	.	.	.	.	.
.	.	.	.	8G	8G	.	.	.	.	.	.	.	.	.
.	.	8.r	8.r	8e	8c	.	.	.	.	.	.	.	.	.
.	.	.	.	8G	8G	.	.	.	.	.	.	.	.	.
.	.	16gg	16gg	.	.	.	.	.	.	.	.	.	.	.
=130	=130	=130	=130	=130	=130	=130	=130	=130	=130	=130	=130	=130	=130	=130
1r	1r	4gg	4gg	8e	8c	4C	2..r	2..r	1e]	1c]	1r	1r	1r	1r
.	.	.	.	8G	8G	.	.	.	.	.	.	.	.	.
.	.	8ee	8ee	8e	8c	2.r	.	.	.	.	.	.	.	.
.	.	16r	16r	8G	8G	.	.	.	.	.	.	.	.	.
.	.	16ee	16ee	.	.	.	.	.	.	.	.	.	.	.
.	.	4ee	4ee	8e	8c	.	.	.	.	.	.	.	.	.
.	.	.	.	8G	8G	.	.	.	.	.	.	.	.	.
.	.	8cc	8cc	8e	8c	.	.	.	.	.	.	.	.	.
.	.	16r	16r	8G	8G	.	16r	16r	.	.	.	.	.	.
.	.	16g	16g	.	.	.	16gg	16ee	.	.	.	.	.	.
=131	=131	=131	=131	=131	=131	=131	=131	=131	=131	=131	=131	=131	=131	=131
1r	1r	8g	8g	8e	8c	4C	8gg	8ee	8e	8c	1r	1r	1r	1r
.	.	8f	8f	8G	8G	.	8ff	8dd	8f	8d	.	.	.	.
.	.	8f	8f	8f	8d	2.r	8ff	8dd	8f	8d	.	.	.	.
.	.	8e	8e	8G	8G	.	8ee	8cc	8g	8e	.	.	.	.
.	.	4e	4e	8g	8e	.	4ee	4cc	4g	4e	.	.	.	.
.	.	.	.	8G	8G	.	.	.	.	.	.	.	.	.
.	.	8.r	8.r	8e	8c	.	4r	4r	4e	4c	.	.	.	.
.	.	.	.	8G	8G	.	.	.	.	.	.	.	.	.
.	.	16ff	16ff	.	.	.	.	.	.	.	.	.	.	.
=132	=132	=132	=132	=132	=132	=132	=132	=132	=132	=132	=132	=132	=132	=132
1r	1r	4ff	4ff	8d	8B	4G	2..r	2..r	1d	1B	1r	1r	1r	1r
.	.	.	.	8G	8G	.	.	.	.	.	.	.	.	.
.	.	8dd	8dd	8d	8B	2.r	.	.	.	.	.	.	.	.
.	.	16r	16r	8G	8G	.	.	.	.	.	.	.	.	.
.	.	16dd	16dd	.	.	.	.	.	.	.	.	.	.	.
.	.	4dd	4dd	8d	8B	.	.	.	.	.	.	.	.	.
.	.	.	.	8G	8G	.	.	.	.	.	.	.	.	.
.	.	8b	8b	8d	8B	.	.	.	.	.	.	.	.	.
.	.	16r	16r	8G	8G	.	16r	16r	.	.	.	.	.	.
.	.	16f	16f	.	.	.	16ff	16dd	.	.	.	.	.	.
=133	=133	=133	=133	=133	=133	=133	=133	=133	=133	=133	=133	=133	=133	=133
1r	1r	8f	8f	8d	8B	4G	8ff	8dd	8d	8B	1r	1r	1r	1r
.	.	8e	8e	8G	8G	.	8ee	8cc	8e	8c	.	.	.	.
.	.	8e	8e	8e	8c	2.r	8ee	8cc	8e	8c	.	.	.	.
.	.	8d	8d	8G	8G	.	8dd	8b	8f	8d	.	.	.	.
.	.	4d	4d	8f	8d	.	4dd	4b	4f	4d	.	.	.	.
.	.	.	.	8G	8G	.	.	.	.	.	.	.	.	.
.	.	8.r	8.r	8d	8B	.	4r	4r	4d	4G	.	.	.	.
.	.	.	.	8G	8G	.	.	.	.	.	.	.	.	.
.	.	16gg	16gg	.	.	.	.	.	.	.	.	.	.	.
=134	=134	=134	=134	=134	=134	=134	=134	=134	=134	=134	=134	=134	=134	=134
1r	1r	4.gg	4.gg	8e	4c	4C	1r	1r	4e	4c	1r	1r	1r	1r
.	.	.	.	8cc	.	.	.	.	.	.	.	.	.	.
.	.	.	.	8g	2.r	2.r	.	.	2.r	2.r	.	.	.	.
.	.	16aa	16aa	8cc	.	.	.	.	.	.	.	.	.	.
.	.	16bb	16bb	.	.	.	.	.	.	.	.	.	.	.
.	.	8ccc	8ccc	8e	.	.	.	.	.	.	.	.	.	.
.	.	6..r	6..r	8g	.	.	.	.	.	.	.	.	.	.
.	.	.	.	8e	.	.	.	.	.	.	.	.	.	.
.	.	.	.	8c	.	.	.	.	.	.	.	.	.	.
.	.	16ee	16ee	.	.	.	.	.	.	.	.	.	.	.
=135	=135	=135	=135	=135	=135	=135	=135	=135	=135	=135	=135	=135	=135	=135
1r	1r	4.dd	4.dd	8A	4F	4F	1r	1r	1r	1r	1r	1r	1r	1r
.	.	.	.	8f	.	.	.	.	.	.	.	.	.	.
.	.	.	.	8d	2.r	2.r	.	.	.	.	.	.	.	.
.	.	16ff	16ff	8f	.	.	.	.	.	.	.	.	.	.
.	.	16gg	16gg	.	.	.	.	.	.	.	.	.	.	.
.	.	8aa	8aa	8A	.	.	.	.	.	.	.	.	.	.
.	.	6..r	6..r	8f	.	.	.	.	.	.	.	.	.	.
.	.	.	.	8d	.	.	.	.	.	.	.	.	.	.
.	.	.	.	8f	.	.	.	.	.	.	.	.	.	.
.	.	16a	16a	.	.	.	.	.	.	.	.	.	.	.
=136	=136	=136	=136	=136	=136	=136	=136	=136	=136	=136	=136	=136	=136	=136
1r	1r	12g	12g	12e	4G	4G	1r	1r	2.e	2.c	1r	1r	1r	1r
.	.	12cc	12cc	12g	.	.	.	.	.	.	.	.	.	.
.	.	12ee	12ee	12cc	.	.	.	.	.	.	.	.	.	.
.	.	12gg	12gg	12ee	2r	2r	.	.	.	.	.	.	.	.
.	.	12ee	12ee	12cc	.	.	.	.	.	.	.	.	.	.
.	.	12ff	12ff	12dd	.	.	.	.	.	.	.	.	.	.
.	.	12gg	12gg	12ee	.	.	.	.	.	.	.	.	.	.
.	.	12aa	12aa	12ff	.	.	.	.	.	.	.	.	.	.
.	.	12gg	12gg	12ee	.	.	.	.	.	.	.	.	.	.
.	.	12ff	12ff	12dd	4G	4G	.	.	12f	12d	.	.	.	.
.	.	12ee	12ee	12cc	.	.	.	.	12e	12c	.	.	.	.
.	.	12dd	12dd	12b	.	.	.	.	12d	12B	.	.	.	.
=137	=137	=137	=137	=137	=137	=137	=137	=137	=137	=137	=137	=137	=137	=137
2..r	1r	12cc	12cc	12cc	4c	4C	2..r	2..r	4c	4c	1r	1r	1r	1r
.	.	12gg	12gg	12ee	.	.	.	.	.	.	.	.	.	.
.	.	12ff	12ff	12dd	.	.	.	.	.	.	.	.	.	.
.	.	12ee	12ee	12cc	2.r	2.r	.	.	2r	2r	.	.	.	.
.	.	12dd	12dd	12b	.	.	.	.	.	.	.	.	.	.
.	.	12cc	12cc	12a	.	.	.	.	.	.	.	.	.	.
.	.	12b	12b	12g	.	.	.	.	.	.	.	.	.	.
.	.	12a	12a	12f	.	.	.	.	.	.	.	.	.	.
.	.	12g	12g	12e	.	.	.	.	.	.	.	.	.	.
.	.	12f	12f	12d	.	.	.	.	8.r	8.r	.	.	.	.
16r	.	12e	12e	12c	.	.	16r	16r	.	.	.	.	.	.
16eee	.	12d	12d	12B	.	.	16gg	16gg	16g	16e	.	.	.	.
=138	=138	=138	=138	=138	=138	=138	=138	=138	=138	=138	=138	=138	=138	=138
4eee	1r	1r	8e	8c	4c	4C	4gg	4gg	4g	4e	1r	1r	1r	1r
.	.	.	8G	8G	.	.	.	.	.	.	.	.	.	.
8ccc	.	.	8e	8c	2.r	2.r	8ee	8ee	8e	8c	.	.	.	.
16r	.	.	8G	8G	.	.	16r	16r	16r	16r	.	.	.	.
16ccc	.	.	.	.	.	.	16ee	16ee	16e	16c	.	.	.	.
4ccc	.	.	8e	8c	.	.	4ee	4ee	4e	4c	.	.	.	.
.	.	.	8G	8G	.	.	.	.	.	.	.	.	.	.
8gg	.	.	8e	8c	.	.	8cc	8cc	8c	8E	.	.	.	.
16r	.	.	8G	8G	.	.	16r	16r	16r	16r	.	.	.	.
16gg	.	.	.	.	.	.	16g	16g	16g	16e	.	.	.	.
=139	=139	=139	=139	=139	=139	=139	=139	=139	=139	=139	=139	=139	=139	=139
8gg	1r	8r	8e	8c	4c	4C	8g	8g	8g	8e	1r	1r	1r	1r
8ff	.	8gg	8G	8G	.	.	8f	8f	8f	8d	.	.	.	.
8ff	.	8aa	8f	8d	2.r	2.r	8f	8f	8f	8d	.	.	.	.
8ee	.	8bb	8G	8G	.	.	8e	8e	8e	8c	.	.	.	.
4ee	.	8ccc	8g	8e	.	.	4e	4e	4e	4c	.	.	.	.
.	.	8ddd	8G	8G	.	.	.	.	.	.	.	.	.	.
8.r	.	8eee	8e	8c	.	.	8.r	8.r	8.r	8.r	.	.	.	.
.	.	8r	8G	8G	.	.	.	.	.	.	.	.	.	.
16fff	.	.	.	.	.	.	16ff	16ff	16f	16d	.	.	.	.
=140	=140	=140	=140	=140	=140	=140	=140	=140	=140	=140	=140	=140	=140	=140
4fff	1r	1r	8d	8B	4G	4G	4ff	4ff	4f	4d	1r	1r	1r	1r
.	.	.	8G	8G	.	.	.	.	.	.	.	.	.	.
8ddd	.	.	8d	8B	2.r	2.r	8dd	8dd	8d	8B	.	.	.	.
16r	.	.	8G	8G	.	.	16r	16r	16r	16r	.	.	.	.
16ddd	.	.	.	.	.	.	16dd	16dd	16d	16B	.	.	.	.
4ddd	.	.	8d	8B	.	.	4dd	4dd	4d	4B	.	.	.	.
.	.	.	8G	8G	.	.	.	.	.	.	.	.	.	.
8bb	.	.	8d	8B	.	.	8b	8b	8B	8F	.	.	.	.
16r	.	.	8G	8G	.	.	16r	16r	16r	16r	.	.	.	.
16ff	.	.	.	.	.	.	16f	16f	16f	16d	.	.	.	.
=141	=141	=141	=141	=141	=141	=141	=141	=141	=141	=141	=141	=141	=141	=141
8ff	1r	8r	8d	8B	4G	4G	8f	8f	8f	8d	1r	1r	1r	1r
8ee	.	8gg	8G	8G	.	.	8e	8e	8e	8c	.	.	.	.
8ee	.	8bb	8e	8c	2.r	2.r	8e	8e	8e	8c	.	.	.	.
8dd	.	8ccc	8G	8G	.	.	8d	8d	8d	8B	.	.	.	.
4dd	.	8ddd	8f	8d	.	.	4d	4d	4d	4B	.	.	.	.
.	.	8eee	8G	8G	.	.	.	.	.	.	.	.	.	.
4r	.	8fff	8d	8B	.	.	8.r	8.r	4r	4r	.	.	.	.
.	.	8r	8G	8G	.	.	.	.	.	.	.	.	.	.
.	.	.	.	.	.	.	16gg	16gg	.	.	.	.	.	.
=142	=142	=142	=142	=142	=142	=142	=142	=142	=142	=142	=142	=142	=142	=142
1r	1r	1r	4c	4c	4c	4E	4.gg	4.gg	8E	8E	1r	1r	1r	1r
.	.	.	.	.	.	.	.	.	8c	8c	.	.	.	.
.	.	.	2.r	2.r	2.r	2.r	.	.	8G	8G	.	.	.	.
.	.	.	.	.	.	.	16aa	16aa	8c	8c	.	.	.	.
.	.	.	.	.	.	.	16bb	16bb	.	.	.	.	.	.
.	.	.	.	.	.	.	8ccc	8ccc	8E	8E	.	.	.	.
.	.	.	.	.	.	.	6..r	4.r	8c	8c	.	.	.	.
.	.	.	.	.	.	.	.	.	8G	8G	.	.	.	.
.	.	.	.	.	.	.	.	.	8c	8c	.	.	.	.
.	.	.	.	.	.	.	16ee	.	.	.	.	.	.	.
=143	=143	=143	=143	=143	=143	=143	=143	=143	=143	=143	=143	=143	=143	=143
1r	1r	4dd	4dd	4a	4f	4F	4.dd	1r	8F	8F	1r	1r	1r	1r
.	.	.	.	.	.	.	.	.	8d	8d	.	.	.	.
.	.	2.r	2.r	2.r	2.r	2.r	.	.	8A	8A	.	.	.	.
.	.	.	.	.	.	.	16ff	.	8d	8d	.	.	.	.
.	.	.	.	.	.	.	16gg	.	.	.	.	.	.	.
.	.	.	.	.	.	.	8aa	.	8F	8F	.	.	.	.
.	.	.	.	.	.	.	6..r	.	8d	8d	.	.	.	.
.	.	.	.	.	.	.	.	.	8A	8A	.	.	.	.
.	.	.	.	.	.	.	.	.	8d	8d	.	.	.	.
.	.	.	.	.	.	.	16a	.	.	.	.	.	.	.
=144	=144	=144	=144	=144	=144	=144	=144	=144	=144	=144	=144	=144	=144	=144
1r	1r	4ee	4ee	4cc	4g	4G	12g	4e	2.e	2.c	1r	1r	1r	1r
.	.	.	.	.	.	.	12cc	.	.	.	.	.	.	.
.	.	.	.	.	.	.	12ee	.	.	.	.	.	.	.
.	.	2r	2r	2r	2r	2r	12gg	12ee	.	.	.	.	.	.
.	.	.	.	.	.	.	12ee	12cc	.	.	.	.	.	.
.	.	.	.	.	.	.	12ff	12dd	.	.	.	.	.	.
.	.	.	.	.	.	.	12gg	12ee	.	.	.	.	.	.
.	.	.	.	.	.	.	12aa	12ff	.	.	.	.	.	.
.	.	.	.	.	.	.	12gg	12ee	.	.	.	.	.	.
.	.	4f	4f	4b	4g	4G	12ff	12dd	12f	12d	.	.	.	.
.	.	.	.	.	.	.	12ee	12cc	12e	12c	.	.	.	.
.	.	.	.	.	.	.	12dd	12b	12d	12B	.	.	.	.
=145	=145	=145	=145	=145	=145	=145	=145	=145	=145	=145	=145	=145	=145	=145
2.r	4C	4e 4cc 4G	4e 4cc 4G	12cc	12c	4C	4cc	4cc	4c	4c	4cc	4e	2cc	2e
.	.	.	.	12gg	12g	.	.	.	.	.	.	.	.	.
.	.	.	.	12ff	12f	.	.	.	.	.	.	.	.	.
.	2r	2r	2r	12ee	12e	2r	2r	2r	2r	2r	2r	2r	.	.
.	.	.	.	12dd	12d	.	.	.	.	.	.	.	.	.
.	.	.	.	12cc	12c	.	.	.	.	.	.	.	.	.
.	.	.	.	12b	12B	.	.	.	.	.	.	.	4r	4r
.	.	.	.	12a	12A	.	.	.	.	.	.	.	.	.
.	.	.	.	12g	12G	.	.	.	.	.	.	.	.	.
4ddd	4GG	12dd	12dd	12f	12F	4G	4ff	4b	4G	4G	4dd	4g	4dd	4g
.	.	12ee	12ee	12e	12E	.	.	.	.	.	.	.	.	.
.	.	12ff	12ff	12d	12D	.	.	.	.	.	.	.	.	.
=146	=146	=146	=146	=146	=146	=146	=146	=146	=146	=146	=146	=146	=146	=146
4eee	4C	4cc 4ee	4cc 4ee	12c	12C	4c	4ee	4cc	4c	4c	2ee	2cc	2ee	2cc
.	.	.	.	12gg	12g	.	.	.	.	.	.	.	.	.
.	.	.	.	12ff	12f	.	.	.	.	.	.	.	.	.
2r	2r	2r	2r	12ee	12e	2r	2r	2r	2r	2r	.	.	.	.
.	.	.	.	12dd	12d	.	.	.	.	.	.	.	.	.
.	.	.	.	12cc	12c	.	.	.	.	.	.	.	.	.
.	.	.	.	12b	12B	.	.	.	.	.	4r	4r	4r	4r
.	.	.	.	12a	12A	.	.	.	.	.	.	.	.	.
.	.	.	.	12g	12G	.	.	.	.	.	.	.	.	.
4ddd	4GG	12dd	12dd	12f	12F	4G	4ff	4b	4G	4G	4dd	4g	4dd	4g
.	.	12ee	12ee	12e	12E	.	.	.	.	.	.	.	.	.
.	.	12ff	12ff	12d	12D	.	.	.	.	.	.	.	.	.
=147	=147	=147	=147	=147	=147	=147	=147	=147	=147	=147	=147	=147	=147	=147
[1ccc	4C	12ee	12ee	[1c	4C	4C	4ee	1cc	4C	4C	1cc	1cc	1cc	1cc
.	.	12b	12b	.	.	.	.	.	.	.	.	.	.	.
.	.	12cc	12cc	.	.	.	.	.	.	.	.	.	.	.
.	2.r	12ff	12ff	.	4D	4D	4ff	.	4D	4D	.	.	.	.
.	.	12b	12b	.	.	.	.	.	.	.	.	.	.	.
.	.	12cc	12cc	.	.	.	.	.	.	.	.	.	.	.
.	.	12gg	12gg	.	4E	4E	4gg	.	4E	4E	.	.	.	.
.	.	12b	12b	.	.	.	.	.	.	.	.	.	.	.
.	.	12cc	12cc	.	.	.	.	.	.	.	.	.	.	.
.	.	12aa	12aa	.	4F	4F	4aa	.	4F	4F	.	.	.	.
.	.	12b	12b	.	.	.	.	.	.	.	.	.	.	.
.	.	12cc	12cc	.	.	.	.	.	.	.	.	.	.	.
=148	=148	=148	=148	=148	=148	=148	=148	=148	=148	=148	=148	=148	=148	=148
1ccc_	4C	12bb-	12bb-	1c_	1G	1E	1bb-	1gg	1G	1E	4cc	4cc	4gg	4cc
.	.	12b	12b	.	.	.	.	.	.	.	.	.	.	.
.	.	12cc	12cc	.	.	.	.	.	.	.	.	.	.	.
.	8.C	12bb-	12bb-	.	.	.	.	.	.	.	8.cc	8.cc	8.gg	8.cc
.	.	12b	12b	.	.	.	.	.	.	.	.	.	.	.
.	16C	12cc	12cc	.	.	.	.	.	.	.	16cc	16cc	16gg	16cc
.	4C	12bb-	12bb-	.	.	.	.	.	.	.	4cc	4cc	4gg	4cc
.	.	12gg	12gg	.	.	.	.	.	.	.	.	.	.	.
.	.	12ee	12ee	.	.	.	.	.	.	.	.	.	.	.
.	4C	12cc	12cc	.	.	.	.	.	.	.	4cc	4cc	4gg	4cc
.	.	12dd	12dd	.	.	.	.	.	.	.	.	.	.	.
.	.	12b-	12b-	.	.	.	.	.	.	.	.	.	.	.
=149	=149	=149	=149	=149	=149	=149	=149	=149	=149	=149	=149	=149	=149	=149
2ccc]	4C	12a	12a	4c]	2F	2F	4aa	4ff	2A	2F	4cc	4cc	2cc	2cc
.	.	12a	12a	.	.	.	.	.	.	.	.	.	.	.
.	.	12a	12a	.	.	.	.	.	.	.	.	.	.	.
.	2.r	12ccc	12ccc	12aa	.	.	4ccc	4aa	.	.	2.r	2.r	.	.
.	.	12ccc	12ccc	12aa	.	.	.	.	.	.	.	.	.	.
.	.	12ccc	12ccc	12aa	.	.	.	.	.	.	.	.	.	.
4aa	.	12aa	12aa	12ff	2r	2r	4aa	4ff	2r	2r	.	.	2r	2r
.	.	12aa	12aa	12ff	.	.	.	.	.	.	.	.	.	.
.	.	12aa	12aa	12ff	.	.	.	.	.	.	.	.	.	.
4ff	.	12ff	12ff	12dd	.	.	4ff	4dd	.	.	.	.	.	.
.	.	12ff	12ff	12dd	.	.	.	.	.	.	.	.	.	.
.	.	12ff	12ff	12dd	.	.	.	.	.	.	.	.	.	.
=150	=150	=150	=150	=150	=150	=150	=150	=150	=150	=150	=150	=150	=150	=150
4ee	4GG	12ee	12ee	12cc	4G	4G	4ee	4cc	2e	2c	2ee	2cc	2ee	2cc
.	.	12ee	12ee	12cc	.	.	.	.	.	.	.	.	.	.
.	.	12ee	12ee	12cc	.	.	.	.	.	.	.	.	.	.
4gg	8.GG	12gg	12gg	12ee	4G	4G	4gg	4ee	.	.	.	.	.	.
.	.	12gg	12gg	12ee	.	.	.	.	.	.	.	.	.	.
.	16GG	12gg	12gg	12ee	.	.	.	.	.	.	.	.	.	.
4b	4GG	12b	12b	12d	4G	4G	4b	4dd	2d	2B	2dd	2g	2dd	2g
.	.	12b	12b	12d	.	.	.	.	.	.	.	.	.	.
.	.	12b	12b	12d	.	.	.	.	.	.	.	.	.	.
4dd	4GG	12dd	12dd	12f	4G	4G	4dd	4b	.	.	.	.	.	.
.	.	12dd	12dd	12f	.	.	.	.	.	.	.	.	.	.
.	.	12dd	12dd	12f	.	.	.	.	.	.	.	.	.	.
=151	=151	=151	=151	=151	=151	=151	=151	=151	=151	=151	=151	=151	=151	=151
2ccc	4C	2ccc	2ccc	2e 2G	12c	12C	[1ccc	2.ee	2c	2c	2cc	2e	2cc	2e
.	.	.	.	.	12c	12C	.	.	.	.	.	.	.	.
.	.	.	.	.	12c	12C	.	.	.	.	.	.	.	.
.	2.r	.	.	.	12c	12C	.	.	.	.	.	.	.	.
.	.	.	.	.	12c	12C	.	.	.	.	.	.	.	.
.	.	.	.	.	12c	12C	.	.	.	.	.	.	.	.
4gg#	.	4gg#	4gg#	4ee	12c	12C	.	.	2r	2r	2r	2r	2r	2r
.	.	.	.	.	12c	12C	.	.	.	.	.	.	.	.
.	.	.	.	.	12c	12C	.	.	.	.	.	.	.	.
4aa	.	4aa	4aa	4ff	12c	12C	.	4ff	.	.	.	.	.	.
.	.	.	.	.	12c	12C	.	.	.	.	.	.	.	.
.	.	.	.	.	12c	12C	.	.	.	.	.	.	.	.
=152	=152	=152	=152	=152	=152	=152	=152	=152	=152	=152	=152	=152	=152	=152
4ff#	2C	4ff#	4ff#	4dd#	12c	12C	1ccc_	4dd#	1r	1r	1r	1r	2cc	2c
.	.	.	.	.	12c	12C	.	.	.	.	.	.	.	.
.	.	.	.	.	12c	12C	.	.	.	.	.	.	.	.
4gg	.	4gg	4gg	4ee	12c	12C	.	4ee	.	.	.	.	.	.
.	.	.	.	.	12c	12C	.	.	.	.	.	.	.	.
.	.	.	.	.	12c	12C	.	.	.	.	.	.	.	.
4ee	2r	4ee	4ee	4g#	12c	12C	.	2r	.	.	.	.	2r	2r
.	.	.	.	.	12c	12C	.	.	.	.	.	.	.	.
.	.	.	.	.	12c	12C	.	.	.	.	.	.	.	.
4ff	.	4ff	4ff	4a	12c	12C	.	.	.	.	.	.	.	.
.	.	.	.	.	12c	12C	.	.	.	.	.	.	.	.
.	.	.	.	.	12c	12C	.	.	.	.	.	.	.	.
=153	=153	=153	=153	=153	=153	=153	=153	=153	=153	=153	=153	=153	=153	=153
4dd#	2C	4dd#	4dd#	4f#	12c	12C	1ccc]	1r	1r	1r	1r	1r	2cc	2c
.	.	.	.	.	12c	12C	.	.	.	.	.	.	.	.
.	.	.	.	.	12c	12C	.	.	.	.	.	.	.	.
4ee	.	4ee	4ee	4g	12c	12C	.	.	.	.	.	.	.	.
.	.	.	.	.	12c	12C	.	.	.	.	.	.	.	.
.	.	.	.	.	12c	12C	.	.	.	.	.	.	.	.
4b	2r	4b	4b	4f	12d	12D	.	.	.	.	.	.	2r	2r
.	.	.	.	.	12d	12D	.	.	.	.	.	.	.	.
.	.	.	.	.	12d	12D	.	.	.	.	.	.	.	.
4cc	.	4cc	4cc	4g	12e	12E	.	.	.	.	.	.	.	.
.	.	.	.	.	12e	12E	.	.	.	.	.	.	.	.
.	.	.	.	.	12e	12E	.	.	.	.	.	.	.	.
=154	=154	=154	=154	=154	=154	=154	=154	=154	=154	=154	=154	=154	=154	=154
12dd	2.r	12dd	12dd	4a	4f	4F	4aa	1r	1r	1r	1r	1r	2.r	2.r
12aa	.	12aa	12aa	.	.	.	.	.	.	.	.	.	.	.
12gg	.	12gg	12gg	.	.	.	.	.	.	.	.	.	.	.
12ff	.	12ff	12ff	2r	2r	2r	2r	.	.	.	.	.	.	.
12ee	.	12ee	12ee	.	.	.	.	.	.	.	.	.	.	.
12dd	.	12dd	12dd	.	.	.	.	.	.	.	.	.	.	.
12cc	.	12cc	12cc	.	.	.	.	.	.	.	.	.	.	.
12b	.	12b	12b	.	.	.	.	.	.	.	.	.	.	.
12a	.	12a	12a	.	.	.	.	.	.	.	.	.	.	.
12g	4GG	12g	12g	4b	4d	4G	4bb	.	.	.	.	.	4dd	4g
12a	.	12a	12a	.	.	.	.	.	.	.	.	.	.	.
12b	.	12b	12b	.	.	.	.	.	.	.	.	.	.	.
=155	=155	=155	=155	=155	=155	=155	=155	=155	=155	=155	=155	=155	=155	=155
4cc	4C	12cc	12cc	2a 2cc	2a	4C	2ccc	2aa	[1CC	[1CC	[1C	[1CC	2cc	2e
.	.	12ccc	12ccc	.	.	.	.	.	.	.	.	.	.	.
.	.	12ccc	12ccc	.	.	.	.	.	.	.	.	.	.	.
2ccc	2.r	12ccc	12ccc	.	.	2.r	.	.	.	.	.	.	.	.
.	.	12ccc	12ccc	.	.	.	.	.	.	.	.	.	.	.
.	.	12ccc	12ccc	.	.	.	.	.	.	.	.	.	.	.
.	.	12ccc	12ccc	4g#	4e	.	4gg#	4ee	.	.	.	.	2r	2r
.	.	12ccc	12ccc	.	.	.	.	.	.	.	.	.	.	.
.	.	12ccc	12ccc	.	.	.	.	.	.	.	.	.	.	.
4ccc	.	12ccc	12ccc	4a	4f	.	4aa	4ff	.	.	.	.	.	.
.	.	12ccc	12ccc	.	.	.	.	.	.	.	.	.	.	.
.	.	12ccc	12ccc	.	.	.	.	.	.	.	.	.	.	.
=156	=156	=156	=156	=156	=156	=156	=156	=156	=156	=156	=156	=156	=156	=156
[1ccc	1r	12ccc	12ccc	4f#	4d#	2r	4ff#	4dd#	1CC_	1CC_	1C_	1CC_	1r	1r
.	.	12ccc	12ccc	.	.	.	.	.	.	.	.	.	.	.
.	.	12ccc	12ccc	.	.	.	.	.	.	.	.	.	.	.
.	.	12ccc	12ccc	4g	4e	.	4gg	4ee	.	.	.	.	.	.
.	.	12ccc	12ccc	.	.	.	.	.	.	.	.	.	.	.
.	.	12ccc	12ccc	.	.	.	.	.	.	.	.	.	.	.
.	.	12ccc	12ccc	4e	4G#	4G#	4ee	4ccc	.	.	.	.	.	.
.	.	12ccc	12ccc	.	.	.	.	.	.	.	.	.	.	.
.	.	12ccc	12ccc	.	.	.	.	.	.	.	.	.	.	.
.	.	12ccc	12ccc	4f	4A	4A	4ff	4ccc	.	.	.	.	.	.
.	.	12ccc	12ccc	.	.	.	.	.	.	.	.	.	.	.
.	.	12ccc	12ccc	.	.	.	.	.	.	.	.	.	.	.
=157	=157	=157	=157	=157	=157	=157	=157	=157	=157	=157	=157	=157	=157	=157
2ccc]	2C	2ccc	2ccc	4d#	4F#	4F#	4dd#	2ccc	1CC_	1CC_	1C_	1CC_	2cc	2c
.	.	.	.	4e	4G	4G	4ee	.	.	.	.	.	.	.
4aa	2r	12aa	12aa	12G 12e	12A	12C	4aa	2ee	.	.	.	.	2r	2r
.	.	12aa	12aa	12G 12e	12A	12C	.	.	.	.	.	.	.	.
.	.	12aa	12aa	12e 12G	12A	12C	.	.	.	.	.	.	.	.
4bb-	.	12bb-	12bb-	12G 12e	12B-	12C	4bb-	.	.	.	.	.	.	.
.	.	12bb-	12bb-	12e 12G	12B-	12C	.	.	.	.	.	.	.	.
.	.	12bb-	12bb-	12e 12G	12B-	12C	.	.	.	.	.	.	.	.
=158	=158	=158	=158	=158	=158	=158	=158	=158	=158	=158	=158	=158	=158	=158
4gg#	2C	12gg#	12gg#	12f 12A	12G#	12C	4gg#	2ff	1CC_	1CC_	1C]	1CC]	2cc	2c
.	.	12gg#	12gg#	12A 12f	12G#	12C	.	.	.	.	.	.	.	.
.	.	12gg#	12gg#	12f 12A	12G#	12C	.	.	.	.	.	.	.	.
4aa	.	12aa	12aa	12A 12f	12A	12C	4aa	.	.	.	.	.	.	.
.	.	12aa	12aa	12A 12f	12A	12C	.	.	.	.	.	.	.	.
.	.	12aa	12aa	12f 12A	12A	12C	.	.	.	.	.	.	.	.
12b	2r	12b	12b	12G 12f	12B	12C	12b	2dd	.	.	.	.	2r	2r
12aa	.	12aa	12aa	12f 12G	12B	12C	12aa	.	.	.	.	.	.	.
12gg	.	12gg	12gg	12f 12G	12B	12C	12gg	.	.	.	.	.	.	.
12ff	.	12ff	12ff	12G 12f	12B	12C	12ff	.	.	.	.	.	.	.
12ee	.	12ee	12ee	12f 12G	12B	12C	12ee	.	.	.	.	.	.	.
12dd	.	12dd	12dd	12f 12G	12B	12C	12dd	.	.	.	.	.	.	.
=159	=159	=159	=159	=159	=159	=159	=159	=159	=159	=159	=159	=159	=159	=159
4cc	4C	12cc	12cc	4G 4e	4c	4C	4cc	4ee	4CC]	4CC]	1r	1r	4cc	4e
.	.	12gg	12gg	.	.	.	.	.	.	.	.	.	.	.
.	.	12ff	12ff	.	.	.	.	.	.	.	.	.	.	.
4r	4r	12ee	12ee	4r	4r	4r	4r	4r	2.r	2.r	.	.	4r	4r
.	.	12dd	12dd	.	.	.	.	.	.	.	.	.	.	.
.	.	12cc	12cc	.	.	.	.	.	.	.	.	.	.	.
4bb	4GG	12b	12b	4b 4f 4G	4d 4f	4C	4ff	4dd	.	.	.	.	4dd	4g
.	.	12aa	12aa	.	.	.	.	.	.	.	.	.	.	.
.	.	12gg	12gg	.	.	.	.	.	.	.	.	.	.	.
4r	4r	12ff	12ff	4r	4r	4r	4r	4r	.	.	.	.	4r	4r
.	.	12ee	12ee	.	.	.	.	.	.	.	.	.	.	.
.	.	12dd	12dd	.	.	.	.	.	.	.	.	.	.	.
=160	=160	=160	=160	=160	=160	=160	=160	=160	=160	=160	=160	=160	=160	=160
4ccc	4C	12cc	12cc	4cc 4e 4G	4c 4e	4C	4ee	4ee	1r	1r	1r	1r	4ee	4cc
.	.	12gg	12gg	.	.	.	.	.	.	.	.	.	.	.
.	.	12ff	12ff	.	.	.	.	.	.	.	.	.	.	.
4r	4r	12ee	12ee	4r	4r	4r	4r	4r	.	.	.	.	4r	4r
.	.	12dd	12dd	.	.	.	.	.	.	.	.	.	.	.
.	.	12cc	12cc	.	.	.	.	.	.	.	.	.	.	.
4bb	4GG	12b	12b	4b 4f 4G	4f 4d	4C	4ff	4dd	.	.	.	.	4dd	4g
.	.	12aa	12aa	.	.	.	.	.	.	.	.	.	.	.
.	.	12gg	12gg	.	.	.	.	.	.	.	.	.	.	.
4r	4r	12ff	12ff	4r	4r	4r	4r	4r	.	.	.	.	4r	4r
.	.	12ee	12ee	.	.	.	.	.	.	.	.	.	.	.
.	.	12dd	12dd	.	.	.	.	.	.	.	.	.	.	.
=161	=161	=161	=161	=161	=161	=161	=161	=161	=161	=161	=161	=161	=161	=161
4ccc	8C	4cc	4cc	4cc 4G 4e	12c	12C	4ee	4ee	12C	12C	[1ee	[1cc	[1ee	[1cc
.	8C	.	.	.	12e	12E	.	.	12E	12E	.	.	.	.
.	.	.	.	.	12f	12F	.	.	12F	12F	.	.	.	.
4r	8C	4r	4r	4r	12g	12G	4r	4r	12G	12G	.	.	.	.
.	8C	.	.	.	12a	12A	.	.	12A	12A	.	.	.	.
.	.	.	.	.	12b	12B	.	.	12B	12B	.	.	.	.
4ccc	8C	4ccc 4ee	4ccc 4ee	4ee 4cc 4g	12cc	12c	4ccc	4ee	12c	12c	.	.	.	.
.	8C	.	.	.	12a	12A	.	.	12A	12A	.	.	.	.
.	.	.	.	.	12g	12G	.	.	12G	12G	.	.	.	.
4ccc	8C	4ccc 4ee	4ccc 4ee	4g 4cc 4ee	12f	12F	4ccc	4ee	12F	12F	.	.	.	.
.	8C	.	.	.	12e	12E	.	.	12E	12E	.	.	.	.
.	.	.	.	.	12d	12D	.	.	12D	12D	.	.	.	.
=162	=162	=162	=162	=162	=162	=162	=162	=162	=162	=162	=162	=162	=162	=162
4ccc	8C	4ccc 4ee	4ccc 4ee	4ee 4g 4cc	12c	12C	4ccc	4ee	12C	12C	1ee_	1cc_	1ee_	1cc_
.	8C	.	.	.	12e	12E	.	.	12E	12E	.	.	.	.
.	.	.	.	.	12f	12F	.	.	12F	12F	.	.	.	.
4r	8C	4r	4r	4r	12g	12G	4r	4r	12G	12G	.	.	.	.
.	8C	.	.	.	12a	12A	.	.	12A	12A	.	.	.	.
.	.	.	.	.	12b	12B	.	.	12B	12B	.	.	.	.
4gg	8C	4ee 4gg	4ee 4gg	4ee 4g 4cc	12cc	12c	4gg	4ee	12c	12c	.	.	.	.
.	8C	.	.	.	12a	12A	.	.	12A	12A	.	.	.	.
.	.	.	.	.	12g	12G	.	.	12G	12G	.	.	.	.
4gg	8C	4ee 4gg	4ee 4gg	4ee 4cc 4g	12f	12F	4gg	4ee	12F	12F	.	.	.	.
.	8C	.	.	.	12e	12E	.	.	12E	12E	.	.	.	.
.	.	.	.	.	12d	12D	.	.	12D	12D	.	.	.	.
=163	=163	=163	=163	=163	=163	=163	=163	=163	=163	=163	=163	=163	=163	=163
4gg	8C	4ee 4gg	4ee 4gg	4ee 4cc 4g	12c	12C	4gg	4ee	12C	12C	4ee]	4cc]	4ee]	4cc]
.	8C	.	.	.	12e	12E	.	.	12E	12E	.	.	.	.
.	.	.	.	.	12f	12F	.	.	12F	12F	.	.	.	.
4r	8C	4r	4r	4r	12g	12G	4r	4r	12G	12G	8ee	8cc	8ee	8cc
.	8C	.	.	.	12a	12A	.	.	12A	12A	8ee	8cc	8ee	8cc
.	.	.	.	.	12b	12B	.	.	12B	12B	.	.	.	.
4ee	8C	4ee 4g 4cc	4ee 4g 4cc	4ee 4g 4cc	12cc	12c	4ee	4cc	12c	12c	4ee	4cc	4ee	4cc
.	8C	.	.	.	12a	12A	.	.	12A	12A	.	.	.	.
.	.	.	.	.	12g	12G	.	.	12G	12G	.	.	.	.
4ee	8C	4ee 4g 4cc	4ee 4g 4cc	4ee 4g 4cc	12f	12F	4ee	4cc	12F	12F	4ee	4cc	4ee	4cc
.	8C	.	.	.	12e	12E	.	.	12E	12E	.	.	.	.
.	.	.	.	.	12d	12D	.	.	12D	12D	.	.	.	.
=164	=164	=164	=164	=164	=164	=164	=164	=164	=164	=164	=164	=164	=164	=164
4ee	4C	4ee 4cc 4g	4ee 4cc 4g	4ee 4g 4cc	4c	4C	4ee	4cc	4C	4C	4ee	4cc	4ee	4cc
4r	4r	4r	4r	4r	4r	4r	4r	4r	4r	4r	4r	4r	4r	4r
4.ccc	4C	4.cc 4.G 4.e	4.cc 4.G 4.e	4.G 4.cc 4.e	4.c	4.C	4.cc	4.e	4.C	4.C	4cc	4e	4cc	4e
.	4r	.	.	.	.	.	.	.	.	.	4r	4r	4r	4r
8ccc	.	8cc 8e	8cc 8e	8e 8cc	8c	8C	8cc	8e	8C	8C	.	.	.	.
=165	=165	=165	=165	=165	=165	=165	=165	=165	=165	=165	=165	=165	=165	=165
4ccc	4C	4G 4cc 4e	4G 4cc 4e	4cc 4e 4G	4c	4C	4cc	4e	4C	4C	4cc	4e	4cc	4e
2.r	2.r	2.r	2.r	2.r	2.r	2.r	2.r	2.r	2.r	2.r	2.r	2.r	2.r	2.r
==	==	==	==	==	==	==	==	==	==	==	==	==	==	==
*-	*-	*-	*-	*-	*-	*-	*-	*-	*-	*-	*-	*-	*-	*-
!!!RWG1: This file contains only pitch and duration data.
!!!RWG2: Transposing instruments are not transposed.
!!!RWG3: Spines may have incompatible meters.
!!!RWG4: Durations of rests and tied notes may be interpreted.
!!!RWG: Key is interpreted using the Humdrum key tool.
!!!AFT: stage1
!!!END: 1997/04/15
!!format changes:
!!content changes:
!!public access: complete
!!!KEY: 2422281892
!!!EMD: Converted from MuseData to Humdrum Dec 16, 2000, by Andreas Kornstaedt using muse2kern.
